!!!COM: Haydn, Franz Joseph
!!!OPR: Symphony in G Major
!!!OTL: Menuet and Trio
!!!OMV: 3
!!!SCT: H I:100
!!!SCA: Thematisch-bibliographisches Werkevererzeichnis (A. van Hoboken)
!!!YOR: Dover Edition; reprint of Eulenburg Edition
!!!EED: Frances Bennion
!!!ENC: Frances Bennion
!!!CDT: 1732/3/31/-1809/5/31/
!!!OCY: Österreich
!!!YEC: Copyright (c) 1994, 2000 Center for Computer Assisted Research in the Humanities
!!!YEM: Rights to all derivative editions reserved.
!!!YEM: Refer to licensing agreement for further details.
!!!YEN: United States of America
**kern	**dynam	**kern	**dynam	**kern	**dynam	**kern	**dynam	**kern	**dynam	**kern	**dynam	**kern	**dynam	**kern	**dynam	**kern	**dynam	**kern	**dynam
*I:Flauto 1, 2	*I:Flauto 1, 2	*I:Violoncello e Contrabasso	*I:Violoncello e Contrabasso	*I:Oboe 1, 2	*I:Oboe 1, 2	*I:Fagotto 1, 2	*I:Fagotto 1, 2	*I:Corno 1, 2 in G	*I:Corno 1, 2 in G	*I:Tromba 1, 2 in C	*I:Tromba 1, 2 in C	*I:Timpani in G, D	*I:Timpani in G, D	*I:Violino I	*I:Violino I	*I:Violino II	*I:Violino II	*I:Viola	*I:Viola
*>[A,B,B,C,D,D,E,E,F]	*	*>[A,B,B,C,D,D,E,E,F]	*	*>[A,B,B,C,D,D,E,E,F]	*	*>[A,A,B,A,A,B,C,D,D,E,E,F]	*	*>[A,B,B,C,D,D,E,E,F]	*	*>[A,B,B,C,D,D,E,E,F]	*	*>[A,B,B,C,D,D,E,E,F]	*	*>[A,B,B,C,D,D,E,E,F]	*	*>[A,B,B,C,D,D,E,E,F]	*	*>[A,B,B,C,D,D,E,E,F]	*
*>A	*	*>A	*	*>A	*	*>A	*	*>A	*	*>A	*	*>A	*	*>A	*	*>A	*	*>A	*
*clefG2	*	*clefF4	*	*clefG2	*	*clefF4	*	*clefG2	*	*clefG2	*	*clefF4	*	*clefG2	*	*clefG2	*	*clefC3	*
*k[f#]	*	*k[f#]	*	*k[f#]	*	*k[f#]	*	*k[]	*	*k[]	*	*k[]	*	*k[f#]	*	*k[f#]	*	*k[f#]	*
*G:	*	*G:	*	*G:	*	*G:	*	*G:	*	*G:	*	*G:	*	*G:	*	*G:	*	*G:	*
*M3/4	*	*M3/4	*	*M3/4	*	*M3/4	*	*M3/4	*	*M3/4	*	*M3/4	*	*M3/4	*	*M3/4	*	*M3/4	*
! Moderato	!	!	!	! (16aaP/	!	!	!	!	!	!	!	! Moderato	!	! (16aaP/	!	!	!	!	!
! a 2.	!	!	!	!	!	!	!	!	!	!	!	!	!	!	!	!	!	!	!
! (16aaP/	!	!	!	!	!	!	!	!	!	!	!	!	!	!	!	!	!	!	!
*tb16	*	*tb16	*	*tb16	*	*tb16	*	*tb16	*	*tb16	*	*tb16	*	*tb16	*	*tb16	*	*tb16	*
=0-	=0-	=0-	=0-	=0-	=0-	=0-	=0-	=0-	=0-	=0-	=0-	=0-	=0-	=0-	=0-	=0-	=0-	=0-	=0-
*	*	*	*	*^	*	*	*	*	*	*	*	*	*	*	*	*	*	*	*
&(8ggp\L)xx	f	4r	.	2ryy	4r	.	4r	.	4r	.	4r	.	4r	.	&(8ggp\L)xx	f	4r	.	4r	.
16ff#\L	.	.	.	.	.	.	.	.	.	.	.	.	.	.	16ff#\L	.	.	.	.	.
16gg\JJ&)	.	.	.	.	.	.	.	.	.	.	.	.	.	.	16gg\JJ&)	.	.	.	.	.
2ryy	.	2ryy	.	.	2ryy	.	2ryy	.	2ryy	.	2ryy	.	2ryy	.	2ryy	.	2ryy	.	2ryy	.
.	.	.	.	&(8ggp/L)xx	.	f	.	.	.	.	.	.	.	.	.	.	.	.	.	.
.	.	.	.	16ff#/L	.	.	.	.	.	.	.	.	.	.	.	.	.	.	.	.
.	.	.	.	16gg/JJ&)	.	.	.	.	.	.	.	.	.	.	.	.	.	.	.	.
=1	=1	=1	=1	=1	=1	=1	=1	=1	=1	=1	=1	=1	=1	=1	=1	=1	=1	=1	=1	=1
*	*	*	*	*	*	*	*^	*	*^	*	*^	*	*	*	*	*	*	*	*	*
4dd'\	.	4G'\xx	f	4dd'/	4b'\	.	4B'\xx	4G\	f	4cc'/xx	4e/	f	4dd'\xx	4g\	f	4GG/xx	f	4dd'\	.	4b/xx 4d'/	f	4G'/xx	f
4dd'\	.	4G'\	.	4dd'/	4b'\	.	4B'\	4G\	.	4cc'/	4e/	.	4dd'\	4g\	.	4GG/	.	4dd'\	.	4b/ 4d'/	.	4G'/	.
! (16eeP/	!	!	!	! (16eeP/	!	!	!	!	!	!	!	!	!	!	!	!	!	! (16eeP/	!	!	!	!	!
&(8ddp\L)	.	4r	.	&(8ddp/L)	4r	.	4r	4r	.	4r	4r	.	4r	4r	.	4r	.	&(8ddp\L)	.	4r	.	4r	.
16cc#\L	.	.	.	16cc#/L	.	.	.	.	.	.	.	.	.	.	.	.	.	16cc#\L	.	.	.	.	.
16dd\JJ&)	.	.	.	16dd/JJ&)	.	.	.	.	.	.	.	.	.	.	.	.	.	16dd\JJ&)	.	.	.	.	.
=2	=2	=2	=2	=2	=2	=2	=2	=2	=2	=2	=2	=2	=2	=2	=2	=2	=2	=2	=2	=2	=2	=2	=2
4b'\	.	4G'\	.	4b'/	4g'\	.	4d'\	4B\	.	4ee'\	4cc\	.	4dd'\	4g\	.	4GG/	.	4b'\	.	4b/ 4d'/	.	4G'/	.
4b'\	.	4G'\	.	4b'/	4g'\	.	4d'\	4B\	.	4ee'\	4cc\	.	4dd'\	4g\	.	4GG/	.	4b'\	.	4b/ 4d'/	.	4G'/	.
! (16ccnP/	!	!	!	! (16ccnP/	!	!	!	!	!	!	!	!	!	!	!	!	!	! (16ccnP/	!	!	!	!	!
&(8bp/L)	.	4r	.	&(8bp/L)	4r	.	4r	4r	.	4r	4r	.	4r	4r	.	4r	.	&(8bp/L)	.	4r	.	4r	.
16a/L	.	.	.	16a/L	.	.	.	.	.	.	.	.	.	.	.	.	.	16a/L	.	.	.	.	.
16g/JJ&)	.	.	.	16g/JJ&)	.	.	.	.	.	.	.	.	.	.	.	.	.	16g/JJ&)	.	.	.	.	.
=3	=3	=3	=3	=3	=3	=3	=3	=3	=3	=3	=3	=3	=3	=3	=3	=3	=3	=3	=3	=3	=3	=3	=3
*	*	*	*	*v	*v	*	*	*	*	*	*	*	*	*	*	*	*	*	*	*	*	*	*
!	!	!	!	! a 2	!	!	!	!	!	!	!	!	!	!	!	!	!	!	!	!	!	!
!	!	!	!	!	!	!	!	!	!	!	!	!	!	!	!	!	!	!	!	!	!	!
*	*	*	*	*	*	*	*	*	*	*	*	*v	*v	*	*	*	*	*	*	*	*	*
!	!	!	!	!	!	!	!	!	!	!	!	! a 2	!	!	!	!	!	!	!	!	!
!	!	!	!	!	!	!	!	!	!	!	!	!	!	!	!	!	!	!	!	!	!
8f#'/L	.	2.D\	.	8f#'/L	.	2c\	2A\	.	2dd\	2g\	.	[2.dd\	.	8D\L	.	8f#'/L	.	(2c/	.	(2A/	.
8g'/	.	.	.	8g'/	.	.	.	.	.	.	.	.	.	8D\	.	8g'/	.	.	.	.	.
8g#'/	.	.	.	8g#'/	.	.	.	.	.	.	.	.	.	8D\	.	8g#'/	.	.	.	.	.
8a'/	.	.	.	8a'/	.	.	.	.	.	.	.	.	.	8D\	.	8a'/	.	.	.	.	.
8b-'/	.	.	.	8b-'/	.	4B\	4G\	.	4ee\	4cc\	.	.	.	8D\	.	8b-'/	.	4B/)	.	4G/)	.
8bn'/J	.	.	.	8bn'/J	.	.	.	.	.	.	.	.	.	8D\J	.	8bn'/J	.	.	.	.	.
=4	=4	=4	=4	=4	=4	=4	=4	=4	=4	=4	=4	=4	=4	=4	=4	=4	=4	=4	=4	=4	=4
*	*	*	*	*^	*	*	*	*	*	*	*	*	*	*	*	*	*	*	*	*	*
4cc\	.	4DD/	.	4cc\	4ryy	.	4A\	4F#\	.	4ff\	4dd\	.	4dd\]	.	4D\	.	4cc\	.	4A/	.	4F#/	.
4r	.	4r	.	4r	4r	.	4r	4r	.	4r	4r	.	4r	.	4r	.	4r	.	4r	.	4r	.
! (16ddP/	!	!	!	! (16ddP/	!	!	!	!	!	!	!	!	!	!	!	!	! (16ddP/	!	!	!	!	!
&(8ccp\L)	.	4r	.	&(8ccp/L)	4r	.	4r	4r	.	4r	4r	.	4r	.	4r	.	&(8ccp\L)	.	4r	.	4r	.
16b\L	.	.	.	16b/L	.	.	.	.	.	.	.	.	.	.	.	.	16b\L	.	.	.	.	.
16cc\JJ&)	.	.	.	16cc/JJ&)	.	.	.	.	.	.	.	.	.	.	.	.	16cc\JJ&)	.	.	.	.	.
=5	=5	=5	=5	=5	=5	=5	=5	=5	=5	=5	=5	=5	=5	=5	=5	=5	=5	=5	=5	=5	=5	=5
4aa\	.	4D\	.	4aa'/	4cc\	.	4A\	4F#\	.	4dd\	4g\	.	4dd\	.	4D\	.	4aa'\	.	4cc/ 4d/	.	4f#\ 4A\	.
4aa\	.	4D\	.	4aa'/	4cc\	.	4A\	4F#\	.	4dd\	4g\	.	4dd\	.	4r	.	4aa'\	.	4cc/ 4d/	.	4f#\ 4A\	.
! (16ggP/	!	!	!	! (16ggP/	!	!	!	!	!	!	!	!	!	!	!	!	! (16ggP/	!	!	!	!	!
&(8ff#p\L)	.	4r	.	&(8ff#p/L)	4r	.	4r	4r	.	4r	4r	.	4r	.	4r	.	&(8ff#p\L)	.	4r	.	4r	.
16ee\L	.	.	.	16ee/L	.	.	.	.	.	.	.	.	.	.	.	.	16ee\L	.	.	.	.	.
16dd\JJ&)	.	.	.	16dd/JJ&)	.	.	.	.	.	.	.	.	.	.	.	.	16dd\JJ&)	.	.	.	.	.
=6	=6	=6	=6	=6	=6	=6	=6	=6	=6	=6	=6	=6	=6	=6	=6	=6	=6	=6	=6	=6	=6	=6
4cc'\	.	4D#\	.	4cc'/	4a\	.	4D#/	4D#\	.	4ff\	4dd\	.	4cc\	.	2.r	.	4cc'\	.	4a/ 4f#/	.	4f#\	.
4cc'\	.	4D#\	.	4cc'/	4a\	.	4D#/	4D#\	.	4ff\	4dd\	.	4cc\	.	.	.	4cc'\	.	4a/ 4f#/	.	4f#\	.
! (16ccP/	!	!	!	! (16ccP/	!	!	!	!	!	!	!	!	!	!	!	!	! (16ccP/	!	!	!	!	!
&(8bp/L)	.	4E\	.	&(8bp/L)	4g\	.	4E/	4E\	.	4ee\	4cc\	.	4g/	.	.	.	&(8bp/L)	.	4g/	.	4g\	.
16a/L	.	.	.	16a/L	.	.	.	.	.	.	.	.	.	.	.	.	16a/L	.	.	.	.	.
16g/JJ&)	.	.	.	16g/JJ&)	.	.	.	.	.	.	.	.	.	.	.	.	16g/JJ&)	.	.	.	.	.
=7	=7	=7	=7	=7	=7	=7	=7	=7	=7	=7	=7	=7	=7	=7	=7	=7	=7	=7	=7	=7	=7	=7
*	*	*^	*	*	*	*	*	*	*	*	*	*	*^	*	*	*	*	*	*	*	*	*
*	*	*	*	*	*v	*v	*	*	*	*	*	*	*	*	*	*	*	*	*	*	*	*	*	*
!	!	!	!	!	! a 2	!	!	!	!	!	!	!	!	!	!	!	!	!	!	!	!	!	!
!	!	!	!	!	!	!	!	!	!	!	!	!	!	!	!	!	!	!	!	!	!	!	!
8a'\L	.	4C/	2ryy	.	8a'\L	.	4C/	4C\	.	4dd/	4dd\	.	4ee\	4cc\	.	4r	.	8a'\L	.	4e/	.	4e\	.
8b'\	.	.	.	.	8b'\	.	.	.	.	.	.	.	.	.	.	.	.	8b'\	.	.	.	.	.
8cc'\	.	4r	.	.	8cc'\	.	4r	4r	.	4r	4ryy	.	4r	4ryy	.	4r	.	8cc'\	.	4r	.	4r	.
8dd'\	.	.	.	.	8dd'\	.	.	.	.	.	.	.	.	.	.	.	.	8dd'\	.	.	.	.	.
8ee'\	.	4DDn/	4Dn\	.	8ee'\	.	4Dn/	4Dn\	.	4dd\	4g\	.	4dd/	4dd\	.	4D\	.	8ee'\	.	4cc\ 4a\	.	4d\	.
8ff#'\J	.	.	.	.	8ff#'\J	.	.	.	.	.	.	.	.	.	.	.	.	8ff#'\J	.	.	.	.	.
=8	=8	=8	=8	=8	=8	=8	=8	=8	=8	=8	=8	=8	=8	=8	=8	=8	=8	=8	=8	=8	=8	=8	=8
4gg\	.	4GG/	4GG\	.	4gg\	.	4GG/	4GG\	.	4ee\	4cc\	.	4dd\	4g\	.	4GG/	.	4gg\	.	4b/ 4g/	.	4G/	.
4r	.	4r	4ryy	.	4r	.	2ryy	4r	.	4r	4r	.	4r	4r	.	4r	.	4r	.	4r	.	4r	.
! I Solo	!	!	!	!	!	!	!	! I Solo	!	!	!	!	!	!	!	!	!	! (16aaP/	!	!	!	!	!
! (16aaP/	!	!	!	!	!	!	!	!	!	!	!	!	!	!	!	!	!	!	!	!	!	!	!
&(8ggp\L)	p	4r	4ryy	.	4r	.	.	4g\	p	4r	4r	.	4r	4r	.	4r	.	&(8ggp\L)	p	4r	.	4r	.
16ff#\L	.	.	.	.	.	.	.	.	.	.	.	.	.	.	.	.	.	16ff#\L	.	.	.	.	.
16gg\JJ&)	.	.	.	.	.	.	.	.	.	.	.	.	.	.	.	.	.	16gg\JJ&)	.	.	.	.	.
=9	=9	=9	=9	=9	=9	=9	=9	=9	=9	=9	=9	=9	=9	=9	=9	=9	=9	=9	=9	=9	=9	=9	=9
!	!	! Vc.	! pizz.	!	!	!	!	!	!	!	!	!	!	!	!	!	!	!	!	!	!	! pizz.	!
*	*	*	*	*	*^	*	*	*	*	*	*	*	*	*	*	*	*	*	*	*	*	*	*
*	*	*	*	*	*	*	*	*v	*v	*	*	*	*	*	*	*	*	*	*	*	*	*	*	*
4dd'\	.	8G'/Lxx	4G"\	p	2.r	2.r	.	4d'\	.	2.r	2.r	.	2.r	2.r	.	2.r	.	4dd'\	.	8B'/L	p	4b"\ 4d"\ 4G"\	p
.	.	8B'/	.	.	.	.	.	.	.	.	.	.	.	.	.	.	.	.	.	8d'/	.	.	.
4dd'\	.	8G'/	4r	.	.	.	.	4d'\	.	.	.	.	.	.	.	.	.	4dd'\	.	8B'/	.	4r	.
.	.	8B'/	.	.	.	.	.	.	.	.	.	.	.	.	.	.	.	.	.	8d'/	.	.	.
! (16eeeP/	!	!	!	!	!	!	!	! (16eP/	!	!	!	!	!	!	!	!	!	! (16eeP/	!	!	!	!	!
&(8dddp\L)	.	8G'/	4r	.	.	.	.	&(8dp\L)	.	.	.	.	.	.	.	.	.	&(8ddp\L)	.	8B'/	.	4r	.
16ccc#\L	.	8B'/J	.	.	.	.	.	16c#\L	.	.	.	.	.	.	.	.	.	16cc#\L	.	8d'/J	.	.	.
16ddd\JJ&)	.	.	.	.	.	.	.	16d\JJ&)	.	.	.	.	.	.	.	.	.	16dd\JJ&)	.	.	.	.	.
=10	=10	=10	=10	=10	=10	=10	=10	=10	=10	=10	=10	=10	=10	=10	=10	=10	=10	=10	=10	=10	=10	=10	=10
4bb'\	.	8G"/L	4G"\	.	2.r	2.r	.	4B'\	.	2.r	2.r	.	2.r	2.r	.	2.r	.	4b'\	.	8g/L	.	4b"\ 4d"\ 4G"\	.
.	.	8B"/	.	.	.	.	.	.	.	.	.	.	.	.	.	.	.	.	.	8d/	.	.	.
4bb'\	.	8G"/	4r	.	.	.	.	4B'\	.	.	.	.	.	.	.	.	.	4b'\	.	8B/	.	4r	.
.	.	8B"/	.	.	.	.	.	.	.	.	.	.	.	.	.	.	.	.	.	8d/	.	.	.
! (16cccnP/	!	!	!	!	!	!	!	! (16cnP/	!	!	!	!	!	!	!	!	!	! (16ccnP/	!	!	!	!	!
&(8bbp\L)	.	8G"/	4r	.	.	.	.	&(8Bp\L)	.	.	.	.	.	.	.	.	.	&(8bp/L)	.	8B/	.	4r	.
16aa\L	.	8B"/J	.	.	.	.	.	16A\L	.	.	.	.	.	.	.	.	.	16a/L	.	8d/J	.	.	.
16gg\JJ&)	.	.	.	.	.	.	.	16G\JJ&)	.	.	.	.	.	.	.	.	.	16g/JJ&)	.	.	.	.	.
=11	=11	=11	=11	=11	=11	=11	=11	=11	=11	=11	=11	=11	=11	=11	=11	=11	=11	=11	=11	=11	=11	=11	=11
(8ff#\L	.	(2A"/	4D"\	.	2.r	2.r	.	(8F#\L	.	2.r	2.r	.	2.r	2.r	.	2.r	.	(8f#/L	.	(2c/	.	4d"\	.
8gg\	.	.	.	.	.	.	.	8G\	.	.	.	.	.	.	.	.	.	8g/	.	.	.	.	.
8gg#\	.	.	4r	.	.	.	.	8G#\	.	.	.	.	.	.	.	.	.	8g#/	.	.	.	4r	.
8aa\	.	.	.	.	.	.	.	8A\	.	.	.	.	.	.	.	.	.	8a/	.	.	.	.	.
8bb-\	.	4G"/)	4r	.	.	.	.	8B-\	.	.	.	.	.	.	.	.	.	8b-/	.	4B/)	.	4r	.
8bbn\J)	.	.	.	.	.	.	.	8Bn\J)	.	.	.	.	.	.	.	.	.	8bn/J)	.	.	.	.	.
=12	=12	=12	=12	=12	=12	=12	=12	=12	=12	=12	=12	=12	=12	=12	=12	=12	=12	=12	=12	=12	=12	=12	=12
4ccc\	.	4F#"/	4D"\	.	(8ff#\L	8dd\L	p	4c\	.	2.r	2.r	.	2.r	2.r	.	2.r	.	4cc\	.	4A/	.	4d"\	.
.	.	.	.	.	8gg\	8ee\	.	.	.	.	.	.	.	.	.	.	.	.	.	.	.	.	.
4r	.	4r	4ryy	.	8aa\	8ff#\	.	4r	.	.	.	.	.	.	.	.	.	4r	.	4r	.	4r	.
.	.	.	.	.	8bb\	8gg\	.	.	.	.	.	.	.	.	.	.	.	.	.	.	.	.	.
!	!	!	!	!	!	!	!	! (16dP/	!	!	!	!	!	!	!	!	!	! (16ddP/	!	!	!	!	!
4r	.	4r	4ryy	.	8ccc\	8aa\	.	&(8cp\L)	.	.	.	.	.	.	.	.	.	&(8ccp\L)	.	4r	.	4r	.
.	.	.	.	.	8bb\J)	8gg\J	.	16B\L	.	.	.	.	.	.	.	.	.	16b\L	.	.	.	.	.
.	.	.	.	.	.	.	.	16c\JJ&)	.	.	.	.	.	.	.	.	.	16cc\JJ&)	.	.	.	.	.
=13	=13	=13	=13	=13	=13	=13	=13	=13	=13	=13	=13	=13	=13	=13	=13	=13	=13	=13	=13	=13	=13	=13	=13
4aa'\	.	8F#"/L	4D"\	.	4aa\	4ff#\	.	4a'\	.	2.r	2.r	.	2.r	2.r	.	2.r	.	4aa'\	.	8a/L	.	4d"\	.
.	.	8A"/	.	.	.	.	.	.	.	.	.	.	.	.	.	.	.	.	.	8cc/	.	.	.
4aa'\	.	8F#"/	4r	.	4r	4r	.	4a'\	.	.	.	.	.	.	.	.	.	4aa'\	.	8a/	.	4r	.
.	.	8A"/	.	.	.	.	.	.	.	.	.	.	.	.	.	.	.	.	.	8cc/	.	.	.
! (16ggP/	!	!	!	!	!	!	!	! (16gP/	!	!	!	!	!	!	!	!	!	! (16ggP/	!	!	!	!	!
&(8ff#p\L)	.	8F#"/	4r	.	4r	4r	.	&(8f#p\L)	.	.	.	.	.	.	.	.	.	&(8ff#p\L)	.	8a/	.	4r	.
16ee\L	.	8A"/J	.	.	.	.	.	16e\L	.	.	.	.	.	.	.	.	.	16ee\L	.	8cc/J	.	.	.
16dd\JJ&)	.	.	.	.	.	.	.	16d\JJ&)	.	.	.	.	.	.	.	.	.	16dd\JJ&)	.	.	.	.	.
=14	=14	=14	=14	=14	=14	=14	=14	=14	=14	=14	=14	=14	=14	=14	=14	=14	=14	=14	=14	=14	=14	=14	=14
4ccc'\	.	8D#"/L	4D#"\	.	2.r	2.r	.	4c'\	.	2.r	2.r	.	2.r	2.r	.	2.r	.	4cc\	.	8f#/L	.	4a"\	.
.	.	8F#"/	.	.	.	.	.	.	.	.	.	.	.	.	.	.	.	.	.	8a/	.	.	.
4ccc'\	.	8D#"/	4r	.	.	.	.	4c'\	.	.	.	.	.	.	.	.	.	4cc\	.	8f#/	.	4r	.
.	.	8F#"/	.	.	.	.	.	.	.	.	.	.	.	.	.	.	.	.	.	8a/	.	.	.
! (16cccP/	!	!	!	!	!	!	!	! (16cP/	!	!	!	!	!	!	!	!	!	! (16ccP/	!	!	!	!	!
&(8bbp\L)	.	8E"/	4E"\	.	.	.	.	&(8Bp\L)	.	.	.	.	.	.	.	.	.	&(8bp/L)	.	8g/	.	4g"\	.
16aa\L	.	8G"/J	.	.	.	.	.	16A\L	.	.	.	.	.	.	.	.	.	16a/L	.	8b/J	.	.	.
16gg\JJ&)	.	.	.	.	.	.	.	16G\JJ&)	.	.	.	.	.	.	.	.	.	16g/JJ&)	.	.	.	.	.
=15	=15	=15	=15	=15	=15	=15	=15	=15	=15	=15	=15	=15	=15	=15	=15	=15	=15	=15	=15	=15	=15	=15	=15
8aa'\L	.	4C"/	4C"\	.	2.r	2.r	.	8A'\L	.	2.r	2.r	.	2.r	2.r	.	2.r	.	8a'\L	.	4e/	.	4c"\	.
8bb'\	.	.	.	.	.	.	.	8B'\	.	.	.	.	.	.	.	.	.	8b'\	.	.	.	.	.
8ccc'\	.	4r	4ryy	.	.	.	.	8c'\	.	.	.	.	.	.	.	.	.	8cc'\	.	4r	.	4r	.
8ddd'\	.	.	.	.	.	.	.	8d'\	.	.	.	.	.	.	.	.	.	8dd'\	.	.	.	.	.
8eee'\	.	4Dn"/	4Dn"\	.	.	.	.	8e'\	.	.	.	.	.	.	.	.	.	8ee'\	.	4c/	.	4d"\	.
8fff#'\J	.	.	.	.	.	.	.	8f#'\J	.	.	.	.	.	.	.	.	.	8ff#'\J	.	.	.	.	.
=16	=16	=16	=16	=16	=16	=16	=16	=16	=16	=16	=16	=16	=16	=16	=16	=16	=16	=16	=16	=16	=16	=16	=16
*	*	*	*	*	*v	*v	*	*	*	*	*	*	*	*	*	*	*	*	*	*	*	*	*
*	*	*	*	*	*	*	*	*	*v	*v	*	*	*	*	*	*	*	*	*	*	*	*
*	*	*	*	*	*	*	*	*	*	*	*v	*v	*	*	*	*	*	*	*	*	*
4ggg\	.	4GG"/	4GG"\	.	4r	.	4g\	.	4r	.	4r	.	4r	.	4gg\	.	4B/	.	4G"/	.
4r	.	4G"/	4G"\	.	4r	.	4r	.	4r	.	4r	.	4r	.	4r	.	4r	.	4r	.
=!|:	=!|:	=!|:	=!|:	=!|:	=!|:	=!|:	=:!|	=:!|	=!|:	=!|:	=!|:	=!|:	=!|:	=!|:	=!|:	=!|:	=!|:	=!|:	=!|:	=!|:
*>B	*	*>B	*	*	*	*	*>B	*	*	*	*>B	*	*>B	*	*>B	*	*>B	*	*>B	*
!	!	! Vc.	!	!	!	!	!	!	!	!	!	!	!	!	!	!	! (16eeP/	!	! (16cP"/	!
!	!	! (16cP"/	!	!	!	!	!	!	!	!	!	!	!	!	!	!	!	!	! arco	!
*	*	*	*	*	*^	*	*	*	*^	*	*	*	*	*	*	*	*	*	*	*
*	*	*	*	*	*>B	*	*	*	*	*>B	*	*	*	*	*	*	*	*	*	*	*	*
4r	.	&(8Bp"\L)	4r	f	4gg/xx	4r	f	4r	.	4ee\xx	4cc\	f	4r	.	4r	.	4gg'\	f	&(8ddp\L)	f	&(8Bp/L)	f
.	.	16A"\L	.	.	.	.	.	.	.	.	.	.	.	.	.	.	.	.	16cc\L	.	16A/L	.
.	.	16G"\JJ&)	.	.	.	.	.	.	.	.	.	.	.	.	.	.	.	.	16b\JJ&)	.	16G/JJ&)	.
2ryy	.	2ryy	2ryy	.	2ryy	2ryy	.	2ryy	.	2ryy	2ryy	.	2ryy	.	2ryy	.	2ryy	.	2ryy	.	2ryy	.
=17	=17	=17	=17	=17	=17	=17	=17	=17	=17	=17	=17	=17	=17	=17	=17	=17	=17	=17	=17	=17	=17	=17
*	*	*	*	*	*	*	*	*	*	*	*	*	*^	*	*	*	*	*	*	*	*	*
2.r	.	8A'"\L	2.r	.	(4gg/	2.r	.	4r	.	4ff\	4dd\	.	2.r	2.r	.	2.r	.	(4ggz\	z	4ccz'\	z	8A'\L	.
.	.	8B'"\	.	.	.	.	.	.	.	.	.	.	.	.	.	.	.	.	.	.	.	8B'\	.
!	!	!	!	!	!	!	!	! a 2	!	!	!	!	!	!	!	!	!	!	!	!	!	!	!
.	.	8c'"\	.	.	4ff#/)	.	.	4A\	f	4r	4r	.	.	.	.	.	.	4ff#\)	.	4cc'\	.	8c'\	.
.	.	8d'"\	.	.	.	.	.	.	.	.	.	.	.	.	.	.	.	.	.	.	.	8d'\	.
!	!	!	!	!	!	!	!	!	!	!	!	!	!	!	!	!	!	!	!	! (16ddP/	!	!	!
.	.	8e'"\	.	.	4ff#'/	.	.	4A\	.	4ff\	4dd\	.	.	.	.	.	.	4ff#'\	.	&(8ccp\L)	.	8e'\	.
.	.	8f#'"\J	.	.	.	.	.	.	.	.	.	.	.	.	.	.	.	.	.	16b\L	.	8f#'\J	.
.	.	.	.	.	.	.	.	.	.	.	.	.	.	.	.	.	.	.	.	16a\JJ&)	.	.	.
=18	=18	=18	=18	=18	=18	=18	=18	=18	=18	=18	=18	=18	=18	=18	=18	=18	=18	=18	=18	=18	=18	=18	=18
4r	.	2g"\	2r	.	(4bbz/	(4dd\xx	zf	(4G\	.	4ee\	4cc\	.	2.r	2.r	.	2.r	.	(4ff#z\	z	2bz\	z	2g\	.
4r	.	.	.	.	4ee/)	4ee\)	.	4g\)	.	4r	4r	.	.	.	.	.	.	4ee\)	.	.	.	.	.
! a 2	!	! arco	!	!	!	!	!	!	!	!	!	!	!	!	!	!	!	!	!	! (16ccP/	!	!	!
!	!	! Vc.+ Cb.	!	!	!	!	!	!	!	!	!	!	!	!	!	!	!	!	!	!	!	!	!
!	!	! (16AP/	!	!	!	!	!	!	!	!	!	!	!	!	!	!	!	!	!	!	!	!	!
4ee\xx	f	&(8Gp\L)	4ryy	f	4ee'/	4ee'\	.	4r	.	4ee\	4cc\	.	.	.	.	.	.	4ee'\	.	&(8bp/L)	.	4r	.
.	.	16F#\L	.	.	.	.	.	.	.	.	.	.	.	.	.	.	.	.	.	16a/L	.	.	.
.	.	16E\JJ&)	.	.	.	.	.	.	.	.	.	.	.	.	.	.	.	.	.	16g/JJ&)	.	.	.
=19	=19	=19	=19	=19	=19	=19	=19	=19	=19	=19	=19	=19	=19	=19	=19	=19	=19	=19	=19	=19	=19	=19	=19
*	*	*v	*v	*	*	*	*	*	*	*	*	*	*	*	*	*	*	*	*	*	*	*	*
*	*	*	*	*	*	*	*	*	*v	*v	*	*	*	*	*	*	*	*	*	*	*	*
!	!	!	!	!	!	!	!	!	! a 2.	!	!	!	!	!	!	!	!	!	!	!	!
!	!	!	!	!	!	!	!	!	!	!	!	!	!	!	!	!	!	!	!	!	!
(8aa\L	.	8F#'\L	.	(4eez/	4a\	z	4r	.	4dd\	.	2.r	2.r	.	2.r	.	(4eez\	z	4az'/	z	2.r	.
8ff#\J)	.	8G'\	.	.	.	.	.	.	.	.	.	.	.	.	.	.	.	.	.	.	.
4dd'\	.	8A'\	.	4dd/)	4r	.	4F#'\	.	4r	.	.	.	.	.	.	4dd\)	.	4a'/	.	.	.
.	.	8B'\	.	.	.	.	.	.	.	.	.	.	.	.	.	.	.	.	.	.	.
!	!	!	!	!	!	!	!	!	!	!	!	!	!	!	!	!	!	! (16bP/	!	!	!
4dd'\	.	8c#'\	.	4dd'/	4r	.	4F#'\	.	4dd\	.	.	.	.	.	.	4dd'\	.	&(8ap/L)	.	.	.
.	.	8d'\J	.	.	.	.	.	.	.	.	.	.	.	.	.	.	.	16g/L	.	.	.
.	.	.	.	.	.	.	.	.	.	.	.	.	.	.	.	.	.	16f#/JJ&)	.	.	.
=20	=20	=20	=20	=20	=20	=20	=20	=20	=20	=20	=20	=20	=20	=20	=20	=20	=20	=20	=20	=20	=20
(4ddz\xx	z	2ez\xx	z	(4ggz/xx	(4a\	z	(4Ez\xx	z	[2.dd\	.	2.r	2.r	.	2.r	.	(4ddz\	z	2gz/	z	4r	.
4cc#\)	.	.	.	4cc#/)	4cc#\)	.	4e\)	.	.	.	.	.	.	.	.	4cc#\)	.	.	.	4r	.
!	!	!	!	! (16eeP/	!	!	!	!	!	!	!	!	!	!	!	! (16eeP/	!	!	!	!	!
4dd'\	.	4d\	.	&(8ddp/L)	4dd'\	.	4f#'\	.	.	.	.	.	.	.	.	&(8ddp\L)	.	4f#/	.	4f#\	.
.	.	.	.	16cc#/L	.	.	.	.	.	.	.	.	.	.	.	16cc#\L	.	.	.	.	.
.	.	.	.	16dd/JJ&)	.	.	.	.	.	.	.	.	.	.	.	16dd\JJ&)	.	.	.	.	.
=21	=21	=21	=21	=21	=21	=21	=21	=21	=21	=21	=21	=21	=21	=21	=21	=21	=21	=21	=21	=21	=21
[2.a/	.	2c#\	.	4ee'/	[2.a\	.	2g\	.	2.dd\_	.	2.r	2.r	.	2.r	.	4ee'\	.	2e/	.	2g\	.
.	.	.	.	4ee'/	.	.	.	.	.	.	.	.	.	.	.	4ee'\	.	.	.	.	.
!	!	!	!	! (16eeP/	!	!	! (16gP/	!	!	!	!	!	!	!	!	! (16eeP/	!	! (16gP/	!	! (16gP/	!
.	.	4d\	.	&(8ddp/L)	.	.	&(8f#p\L)	.	.	.	.	.	.	.	.	&(8ddp\L)	.	&(8f#p/L)	.	&(8f#p\L)	.
.	.	.	.	16cc#/L	.	.	16e\L	.	.	.	.	.	.	.	.	16cc#\L	.	16e/L	.	16e\L	.
.	.	.	.	16dd/JJ&)	.	.	16f#\JJ&)	.	.	.	.	.	.	.	.	16dd\JJ&)	.	16f#/JJ&)	.	16f#\JJ&)	.
=22	=22	=22	=22	=22	=22	=22	=22	=22	=22	=22	=22	=22	=22	=22	=22	=22	=22	=22	=22	=22	=22
2.a/]	p	2e\	.	4cc#/	4a\]	.	2e\	.	4dd\]	.	2.r	2.r	.	2.r	.	4cc#'\	.	2g/	.	2e\	.
.	.	.	.	4r	4ryy	.	.	.	4r	.	.	.	.	.	.	4cc#'\	.	.	.	.	.
!	!	!	!	!	!	!	! (16gP/	!	!	!	!	!	!	!	!	! (16eeP/	!	!	!	!	!
.	.	4d\	p	4r	4ryy	.	&(8f#p\L)	p	4r	.	.	.	.	.	.	&(8ddp\L)	p	4f#/	p	4f#\	p
.	.	.	.	.	.	.	16e\L	.	.	.	.	.	.	.	.	16cc#\L	.	.	.	.	.
.	.	.	.	.	.	.	16f#\JJ&)	.	.	.	.	.	.	.	.	16dd\JJ&)	.	.	.	.	.
=23	=23	=23	=23	=23	=23	=23	=23	=23	=23	=23	=23	=23	=23	=23	=23	=23	=23	=23	=23	=23	=23
!	!	!	!	! (32bbP/LLL	!	!	!	!	!	!	!	!	!	!	!	!	!	!	!	!	!
!	!	!	!	! 32aaP/	!	!	!	!	!	!	!	!	!	!	!	!	!	!	!	!	!
!	!	!	!	! 32gg#P/JJJ	!	!	!	!	!	!	!	!	!	!	!	!	!	!	!	!	!
*	*	*	*	*	*	*	*	*	*^	*	*	*	*	*	*	*	*	*	*	*	*
[2.a/	.	2c#\	.	4aap/)xx	2.r	p	2g\	.	2.r	2.r	.	2.r	2.r	.	2.r	.	4ee'\	.	2e/	.	2g\	.
.	.	.	.	4r	.	.	.	.	.	.	.	.	.	.	.	.	4ee'\	.	.	.	.	.
!	!	!	!	!	!	!	! (16gP/	!	!	!	!	!	!	!	!	!	! (16eeP/	!	! (16f#P/	!	! (16gP/	!
.	.	4d\	.	4r	.	.	&(8f#p\L)	.	.	.	.	.	.	.	.	.	&(8ddp\L)	.	&(8f#p/L)	.	&(8f#p\L)	.
.	.	.	.	.	.	.	16e\L	.	.	.	.	.	.	.	.	.	16cc#\L	.	16e/L	.	16e\L	.
.	.	.	.	.	.	.	16f#\JJ&)	.	.	.	.	.	.	.	.	.	16dd\JJ&)	.	16f#/JJ&)	.	16f#\JJ&)	.
=24	=24	=24	=24	=24	=24	=24	=24	=24	=24	=24	=24	=24	=24	=24	=24	=24	=24	=24	=24	=24	=24	=24
!	!	!	!	! (32bbP/LLL	!	!	!	!	!	!	!	!	!	!	!	!	!	!	!	!	!	!
!	!	!	!	! 32aaP/	!	!	!	!	!	!	!	!	!	!	!	!	!	!	!	!	!	!
!	!	!	!	! 32gg#P/JJJ	!	!	!	!	!	!	!	!	!	!	!	!	!	!	!	!	!	!
2a/]	.	2e\	.	4aap/)	4r	.	2e\	.	2.r	2.r	.	2.r	2.r	.	2.r	.	4cc#'\	.	2g/	.	2e\	.
.	.	.	.	4r	4r	.	.	.	.	.	.	.	.	.	.	.	4cc#'\	.	.	.	.	.
! (16ddP/	!	!	!	!	!	!	!	!	!	!	!	!	!	!	!	!	! (16ddP/	!	!	!	!	!
&(8cc#p\L)xx	f	4r	.	4r	(8g\L	f	4r	.	.	.	.	.	.	.	.	.	&(8cc#p\L)	f	4r	.	8g\L	f
16b\L	.	.	.	.	8e\J)	.	.	.	.	.	.	.	.	.	.	.	16b\L	.	.	.	8e\J	.
16a\JJ&)	.	.	.	.	.	.	.	.	.	.	.	.	.	.	.	.	16a\JJ&)	.	.	.	.	.
=25	=25	=25	=25	=25	=25	=25	=25	=25	=25	=25	=25	=25	=25	=25	=25	=25	=25	=25	=25	=25	=25	=25
(4aaz\	z	2.r	.	(4aaz/	8d'\L	z	2.r	.	2dd/	2.g\	f	2.r	2.r	.	2.r	.	(4aaz\	z	(4ff#z\	z	8d'\L	.
.	.	.	.	.	8e'\	.	.	.	.	.	.	.	.	.	.	.	.	.	.	.	8e'\	.
4gg\	.	.	.	4gg/	8f#'\	.	.	.	.	.	.	.	.	.	.	.	4gg\	.	4ee\	.	8f#'\	.
.	.	.	.	.	8g'\	.	.	.	.	.	.	.	.	.	.	.	.	.	.	.	8g'\	.
4ff#\)	.	.	.	4ff#/)	8a'\	.	.	.	4gg/	.	.	.	.	.	.	.	4ff#\)	.	4dd\)	.	8a'\	.
.	.	.	.	.	8b'\J	.	.	.	.	.	.	.	.	.	.	.	.	.	.	.	8b'\J	.
=26	=26	=26	=26	=26	=26	=26	=26	=26	=26	=26	=26	=26	=26	=26	=26	=26	=26	=26	=26	=26	=26	=26
(4bbz\	z	8E'\L	f	(4bbz/	4e\	z	(4gz\	z	4ee/	4cc\	.	2.r	2.r	.	2.r	.	(4bbz\	z	(4ggz\	z	8e'\L	.
.	.	8F#'\	.	.	.	.	.	.	.	.	.	.	.	.	.	.	.	.	.	.	8f#'\	.
4aa\	.	8G'\	.	4aa/	4r	.	4f#\	.	4r	4ryy	.	.	.	.	.	.	4aa\	.	4ff#\	.	8g'\	.
.	.	8A'\	.	.	.	.	.	.	.	.	.	.	.	.	.	.	.	.	.	.	8a'\	.
4gg\)	.	8B'\	.	4gg/)	4ee\	.	4e\)	.	4r	4ryy	.	.	.	.	.	.	4gg\)	.	4ee\)	.	8b'\	.
.	.	8c#'\J	.	.	.	.	.	.	.	.	.	.	.	.	.	.	.	.	.	.	8cc#'\J	.
=27	=27	=27	=27	=27	=27	=27	=27	=27	=27	=27	=27	=27	=27	=27	=27	=27	=27	=27	=27	=27	=27	=27
! (16ggP/	!	!	!	! 16ggP/	! (16eeP/	!	!	!	!	!	!	!	!	!	!	!	! (16ggP/	!	! (16eeP/	!	!	!
&(8ff#p\L)	.	4d\	.	(8ff#p\L	8ddp\L)	.	4d\	.	4dd/	4g\	.	2.r	2.r	.	2.r	.	&(8ff#p\L)	.	&(8ddp\L)	.	4dd\	.
16ee\L	.	.	.	16ee\L	16cc#\L	.	.	.	.	.	.	.	.	.	.	.	16ee\L	.	16cc#\L	.	.	.
16ff#\JJ&)	.	.	.	16ff#\JJ)	16dd\JJ	.	.	.	.	.	.	.	.	.	.	.	16ff#\JJ&)	.	16dd\JJ&)	.	.	.
4gg'\	.	4G\	.	4gg'\	4ee\	.	4G\	.	4ee/	4cc\	.	.	.	.	.	.	4gg'\	.	4b'\	.	4G/	.
4ee'\	.	4A\	.	4ee'\	4cc#\	.	4A\	.	4dd/	4dd\	.	.	.	.	.	.	4ee'\	.	4cc#'\	.	4A/	.
=28	=28	=28	=28	=28	=28	=28	=28	=28	=28	=28	=28	=28	=28	=28	=28	=28	=28	=28	=28	=28	=28	=28
!	!	! (16eP/	!	!	!	!	! (16eP/	!	!	!	!	!	!	!	!	!	!	!	!	!	!	!
2dd\	.	&(8dp\L)	.	2dd/	2dd\	.	&(8dp\L)	.	2dd/	2g\	.	2dd/xx	2dd\	f	4D\xx	f	2dd/ 2d/	.	2dd/ 2d/	.	4d\	.
.	.	16c#\L	.	.	.	.	16c#\L	.	.	.	.	.	.	.	.	.	.	.	.	.	.	.
.	.	16d\JJ&)	.	.	.	.	16d\JJ&)	.	.	.	.	.	.	.	.	.	.	.	.	.	.	.
.	.	4D\	.	.	.	.	4D\	.	.	.	.	.	.	.	4r	.	.	.	.	.	4r	.
!	!	!	!	! (16eeP/	!	!	!	!	!	!	!	!	!	!	!	!	! (16eeP/	!	! (16eeP/	!	! (16gP/	!
4ddd\	.	4D\	.	&(8ddp/L)	4f#\	.	4D\	.	4r	4ryy	.	4r	4ryy	.	4r	.	&(8ddp\L)	.	&(8ddp\L)	.	&(8f#p\L)	.
.	.	.	.	16cc#/L	.	.	.	.	.	.	.	.	.	.	.	.	16cc#\L	.	16cc#\L	.	16e\L	.
.	.	.	.	16dd/JJ&)	.	.	.	.	.	.	.	.	.	.	.	.	16dd\JJ&)	.	16dd\JJ&)	.	16f#\JJ&)	.
=29	=29	=29	=29	=29	=29	=29	=29	=29	=29	=29	=29	=29	=29	=29	=29	=29	=29	=29	=29	=29	=29	=29
!	!	! (16eP/	!	!	!	!	! (16eP/	!	!	!	!	!	!	!	!	!	!	!	!	!	!	!
2ccc#\	.	&(8dp\L)	.	4ee'/	2g\	.	&(8dp\L)	.	2g/	2G/	.	2dd/	2dd\	.	4D\	.	4ee'\	.	2cc#\	.	2g\	.
.	.	16c#\L	.	.	.	.	16c#\L	.	.	.	.	.	.	.	.	.	.	.	.	.	.	.
.	.	16d\JJ&)	.	.	.	.	16d\JJ&)	.	.	.	.	.	.	.	.	.	.	.	.	.	.	.
.	.	4D\	.	4ee'/	.	.	4D\	.	.	.	.	.	.	.	4r	.	4ee'\	.	.	.	.	.
!	!	!	!	! (16ggP/	!	!	!	!	!	!	!	!	!	!	!	!	! (16ggP/	!	!	!	!	!
4cccn\	.	4D\	.	&(8ff#p/L)	4a\	.	4D\	.	4r	4r	.	4r	4ryy	.	4r	.	&(8ff#p\L)	.	4ccn\	.	4a\	.
.	.	.	.	16ee/L	.	.	.	.	.	.	.	.	.	.	.	.	16ee\L	.	.	.	.	.
.	.	.	.	16ff#/JJ&)	.	.	.	.	.	.	.	.	.	.	.	.	16ff#\JJ&)	.	.	.	.	.
=30	=30	=30	=30	=30	=30	=30	=30	=30	=30	=30	=30	=30	=30	=30	=30	=30	=30	=30	=30	=30	=30	=30
!	!	! (16eP/	!	!	!	!	! (16eP/	!	!	!	!	!	!	!	!	!	!	!	!	!	!	!
2bb\	.	&(8dp\L)	.	4gg'/	2b\	.	&(8dp\L)	.	2g/	2G/	.	2dd/	2dd\	.	4D\	.	4gg'\	.	2b\	.	4b\	.
.	.	16c#\L	.	.	.	.	16c#\L	.	.	.	.	.	.	.	.	.	.	.	.	.	.	.
.	.	16d\JJ&)	.	.	.	.	16d\JJ&)	.	.	.	.	.	.	.	.	.	.	.	.	.	.	.
.	.	4D\	.	4gg'/	.	.	4D\	.	.	.	.	.	.	.	4r	.	4gg'\	.	.	.	4r	.
! (16cccP/	!	!	!	! (16aaP/	! (16ccnP\	!	!	!	!	!	!	!	!	!	!	!	! (16aaP/	!	! (16ccP/	!	!	!
&(8bbp\L)	.	4D\	.	&(8gg#p/L)	&(8bp\L)	.	4r	.	4r	4r	.	4r	4ryy	.	4r	.	&(8gg#p\L)	.	&(8bp/L)	.	4r	.
16aa\L	.	.	.	16ff#/L	16a\L	.	.	.	.	.	.	.	.	.	.	.	16ff#\L	.	16a/L	.	.	.
16bb\JJ&)	.	.	.	16gg#/JJ&)	16b\JJ&)	.	.	.	.	.	.	.	.	.	.	.	16gg#\JJ&)	.	16b/JJ&)	.	.	.
=31	=31	=31	=31	=31	=31	=31	=31	=31	=31	=31	=31	=31	=31	=31	=31	=31	=31	=31	=31	=31	=31	=31
!	!	! (16eP/	!	!	!	!	!	!	!	!	!	!	!	!	!	!	!	!	!	!	!	!
4ccc'\	.	&(8dp\L)	.	4aa'/	4cc'\	.	4r	.	2g/	2G/	.	2dd/	2dd\	.	4D\	.	4aa'\	.	4cc\	.	4r	.
.	.	16c#\L	.	.	.	.	.	.	.	.	.	.	.	.	.	.	.	.	.	.	.	.
.	.	16d\JJ&)	.	.	.	.	.	.	.	.	.	.	.	.	.	.	.	.	.	.	.	.
! (16bbP/	!	!	!	! (16ggnP/	! (16bP\	!	! (16dP/	!	!	!	!	!	!	!	!	!	! (16ggnP/	!	! (16bP/	!	! (16dP/	!
&(8aap\L)	.	4D\	.	&(8ff#p/L)	&(8ap\L)	.	&(8cnp\L)	.	.	.	.	.	.	.	4r	.	&(8ff#p\L)	.	&(8ap/L)	.	&(8cnp/L)	.
16gg\L	.	.	.	16ee/L	16g\L	.	16B\L	.	.	.	.	.	.	.	.	.	16ee\L	.	16g/L	.	16B/L	.
16aa\JJ&)	.	.	.	16ff#/JJ&)	16a\JJ&)	.	16c\JJ&)	.	.	.	.	.	.	.	.	.	16ff#\JJ&)	.	16a/JJ&)	.	16c/JJ&)	.
!	!	! (16eP/	!	!	!	!	!	!	!	!	!	!	!	!	!	!	!	!	!	!	!	!
4bb'\	.	&(8dp\L)	.	4gg'/	4b'\	.	4B'\	.	4r	4r	.	4r	4ryy	.	4r	.	4gg'\	.	4b'/	.	4B'/	.
.	.	16c#\L	.	.	.	.	.	.	.	.	.	.	.	.	.	.	.	.	.	.	.	.
.	.	16d\JJ&)	.	.	.	.	.	.	.	.	.	.	.	.	.	.	.	.	.	.	.	.
=32	=32	=32	=32	=32	=32	=32	=32	=32	=32	=32	=32	=32	=32	=32	=32	=32	=32	=32	=32	=32	=32	=32
(4gg\	.	4D\	.	4ee/	2.g\	.	4g\	.	2g/	2G/	.	2dd/	2dd\	.	4D\	.	4ee\	.	2.g/	.	4g\	.
!	!	! (16eP/	!	!	!	!	!	!	!	!	!	!	!	!	!	!	!	!	!	!	!	!
4eee\	.	&(8dp\L)	.	4cc#/	.	.	4e\	.	.	.	.	.	.	.	4r	.	4cc#\	.	.	.	4e\	.
.	.	16c#\L	.	.	.	.	.	.	.	.	.	.	.	.	.	.	.	.	.	.	.	.
.	.	16d\JJ&)	.	.	.	.	.	.	.	.	.	.	.	.	.	.	.	.	.	.	.	.
4ccc#\)	.	4D\	.	4a/	.	.	4c#\	.	4r	4r	.	4r	4ryy	.	4r	.	4a/	.	.	.	4c#\	.
=33	=33	=33	=33	=33	=33	=33	=33	=33	=33	=33	=33	=33	=33	=33	=33	=33	=33	=33	=33	=33	=33	=33
4ddd'\	.	8d\L	.	4dd'/	4f#'\	.	2d\	.	[2.g/	[2.G/	.	2dd/	2dd\	.	4D\	.	4dd'\	.	2f#/	.	4d\	.
.	.	8D\	.	.	.	.	.	.	.	.	.	.	.	.	.	.	.	.	.	.	.	.
4ddd'\	.	8d\	.	4dd'/	4a'\	.	.	.	.	.	.	.	.	.	4r	.	4dd'\	.	.	.	4a\	.
.	.	8D\	.	.	.	.	.	.	.	.	.	.	.	.	.	.	.	.	.	.	.	.
! (16dddP/	!	!	!	! (16ddP/	!	!	!	!	!	!	!	!	!	!	!	!	! (16ddP/	!	!	!	!	!
&(8ccc#p\L)	.	8d\	.	&(8cc#p/L)	4a\	.	4e\	.	.	.	.	4r	4ryy	.	4r	.	&(8cc#p\L)	.	4g/	.	4e\	.
16bb\L	.	8D\J	.	16b/L	.	.	.	.	.	.	.	.	.	.	.	.	16b\L	.	.	.	.	.
16aa\JJ&)	.	.	.	16a/JJ&)	.	.	.	.	.	.	.	.	.	.	.	.	16a\JJ&)	.	.	.	.	.
=34	=34	=34	=34	=34	=34	=34	=34	=34	=34	=34	=34	=34	=34	=34	=34	=34	=34	=34	=34	=34	=34	=34
4ddd'\	.	8d\L	.	4dd'/	2.a\	.	2d\	.	2.g/_	2.G/_	.	2dd/	2dd\	.	4D\	.	4dd'\	.	2f#/	.	4f#\	.
.	.	8D\	.	.	.	.	.	.	.	.	.	.	.	.	.	.	.	.	.	.	.	.
4ddd'\	.	8d\	.	4dd'/	.	.	.	.	.	.	.	.	.	.	4r	.	4dd'\	.	.	.	4a\	.
.	.	8D\	.	.	.	.	.	.	.	.	.	.	.	.	.	.	.	.	.	.	.	.
! (16dddP/	!	!	!	! (16ddP/	!	!	!	!	!	!	!	!	!	!	!	!	! (16ddP/	!	!	!	!	!
&(8ccc#p\L)	.	8d\	.	&(8cc#p/L)	.	.	4e\	.	.	.	.	4r	4ryy	.	4r	.	&(8cc#p\L)	.	4g/	.	4e\	.
16bb\L	.	8D\J	.	16b/L	.	.	.	.	.	.	.	.	.	.	.	.	16b\L	.	.	.	.	.
16aa\JJ&)	.	.	.	16a/JJ&)	.	.	.	.	.	.	.	.	.	.	.	.	16a\JJ&)	.	.	.	.	.
=35	=35	=35	=35	=35	=35	=35	=35	=35	=35	=35	=35	=35	=35	=35	=35	=35	=35	=35	=35	=35	=35	=35
(2ddd\	>	[2.d\	>	4dd/	4a\	.	4d\	.	4g/]	4G/]	.	4dd/	4dd\	.	4D\	.	(2dd\	>	2.f#/	>	2.f#\	>
.	.	.	.	4r	4ryy	.	4r	.	4r	4r	.	4r	4ryy	.	4r	.	.	.	.	.	.	.
4cccn\)	.	.	.	4r	4ryy	.	4r	.	4r	4r	.	4r	4ryy	.	4r	.	4ccn\)	.	.	.	.	.
=36	=36	=36	=36	=36	=36	=36	=36	=36	=36	=36	=36	=36	=36	=36	=36	=36	=36	=36	=36	=36	=36	=36
! I Solo	!	!	!	!	!	!	!	!	!	!	!	!	!	!	!	!	!	!	!	!	!	!
4bb'\	]p	2.d\]	]p	2.r	2.r	.	2.r	.	2.r	2.r	.	2.r	2.r	.	2.r	.	4b'\	]p	(2.fn/	]p	(2.fn\	]p
4bb'\	.	.	.	.	.	.	.	.	.	.	.	.	.	.	.	.	4b'\	.	.	.	.	.
! (16aaP/	!	!	!	!	!	!	!	!	!	!	!	!	!	!	!	!	! (16aP/	!	!	!	!	!
&(8gg#p\L)	.	.	.	.	.	.	.	.	.	.	.	.	.	.	.	.	&(8g#p/L)	.	.	.	.	.
16ff#\L	.	.	.	.	.	.	.	.	.	.	.	.	.	.	.	.	16f#/L	.	.	.	.	.
16gg#\JJ&)	.	.	.	.	.	.	.	.	.	.	.	.	.	.	.	.	16g#/JJ&)	.	.	.	.	.
=37	=37	=37	=37	=37	=37	=37	=37	=37	=37	=37	=37	=37	=37	=37	=37	=37	=37	=37	=37	=37	=37	=37
4aa'\	.	(4c#\	.	2.r	2.r	.	2.r	.	2.r	2.r	.	2.r	2.r	.	2.r	.	4a'/	.	4e/	.	4e\	.
4aa'\	.	2cn\)	.	.	.	.	.	.	.	.	.	.	.	.	.	.	4a'/	.	2e-/)	.	2e-\)	.
! (16ggnP/	!	!	!	!	!	!	!	!	!	!	!	!	!	!	!	!	! (16gnP/	!	!	!	!	!
&(8ff#p\L)	.	.	.	.	.	.	.	.	.	.	.	.	.	.	.	.	&(8f#p/L)	.	.	.	.	.
16ee\L	.	.	.	.	.	.	.	.	.	.	.	.	.	.	.	.	16e/L	.	.	.	.	.
16ff#\JJ&)	.	.	.	.	.	.	.	.	.	.	.	.	.	.	.	.	16f#/JJ&)	.	.	.	.	.
=38	=38	=38	=38	=38	=38	=38	=38	=38	=38	=38	=38	=38	=38	=38	=38	=38	=38	=38	=38	=38	=38	=38
[4gg\	.	(4B\	.	2.r	2.r	.	2.r	.	2.r	2.r	.	2.r	2.r	.	2.r	.	[4g/	.	(2d/	.	(2d\xx	.
(12gg\L]	.	4B-\	.	.	.	.	.	.	.	.	.	.	.	.	.	.	12g/L]	.	.	.	.	.
12aa\	.	.	.	.	.	.	.	.	.	.	.	.	.	.	.	.	12a/	.	.	.	.	.
12gg\J)	.	.	.	.	.	.	.	.	.	.	.	.	.	.	.	.	12g/J	.	.	.	.	.
(12ffn\L	.	4A\)	.	.	.	.	.	.	.	.	.	.	.	.	.	.	12fn/L	.	4cn/)	.	4cn\)	.
12gg\	.	.	.	.	.	.	.	.	.	.	.	.	.	.	.	.	12g/	.	.	.	.	.
12ff\J)	.	.	.	.	.	.	.	.	.	.	.	.	.	.	.	.	12f/J	.	.	.	.	.
=39	=39	=39	=39	=39	=39	=39	=39	=39	=39	=39	=39	=39	=39	=39	=39	=39	=39	=39	=39	=39	=39	=39
(12ee-\L	.	(4G\	.	2.r	2.r	.	2.r	.	2.r	2.r	.	2.r	2.r	.	2.r	.	12e-/L	.	(4B-/	.	(4B-/	.
12ffn\	.	.	.	.	.	.	.	.	.	.	.	.	.	.	.	.	12fn/	.	.	.	.	.
12ee-\J)	.	.	.	.	.	.	.	.	.	.	.	.	.	.	.	.	12e-/J	.	.	.	.	.
(12dd\L	.	4Fn\	.	.	.	.	.	.	.	.	.	.	.	.	.	.	12d/L	.	4A/)	.	4A/	.
12ee-\	.	.	.	.	.	.	.	.	.	.	.	.	.	.	.	.	12e-/	.	.	.	.	.
12dd\J)	.	.	.	.	.	.	.	.	.	.	.	.	.	.	.	.	12d/J	.	.	.	.	.
(4cc#\	.	4E-\)	.	.	.	.	.	.	.	.	.	.	.	.	.	.	(4c#/	.	(4G/xx	.	4G/)	.
=40	=40	=40	=40	=40	=40	=40	=40	=40	=40	=40	=40	=40	=40	=40	=40	=40	=40	=40	=40	=40	=40	=40
*	*	*^	*	*	*	*	*	*	*	*	*	*	*	*	*	*	*	*	*	*	*	*
4dd\)	.	4D\	4ryy	.	2.r	2.r	.	2.r	.	2.r	2.r	.	2.r	2.r	.	2.r	.	4d/)	.	4d/)	.	2F#/	.
4r	.	4D\	4ryy	.	.	.	.	.	.	.	.	.	.	.	.	.	.	4r	.	4r	.	.	.
!	!	! Cello.	! Basso.	!	!	!	!	!	!	!	!	!	!	!	!	!	!	!	!	!	!	!	!
!	!	! (16FFP\	! (16FP/	!	!	!	!	!	!	!	!	!	!	!	!	!	!	!	!	!	!	!	!
(4gg\	.	&(8EE-p\L)	&(8E-p/L)	.	.	.	.	.	.	.	.	.	.	.	.	.	.	(4g/	.	(4c#/	.	(4G/	.
.	.	16DD\L	16D/L	.	.	.	.	.	.	.	.	.	.	.	.	.	.	.	.	.	.	.	.
.	.	16EE-\JJ&)	16E-/JJ&)	.	.	.	.	.	.	.	.	.	.	.	.	.	.	.	.	.	.	.	.
=41	=41	=41	=41	=41	=41	=41	=41	=41	=41	=41	=41	=41	=41	=41	=41	=41	=41	=41	=41	=41	=41	=41	=41
4ff#\)	.	4DD'\	4D'/	.	2.r	2.r	.	2.r	.	2.r	2.r	.	2.r	2.r	.	2.r	.	4f#/)	.	4d/)	.	4d\)	.
4r	.	4DD'\	4D'/	.	.	.	.	.	.	.	.	.	.	.	.	.	.	4r	.	4r	.	4r	.
!	!	! (16FFP\	! (16FP/	!	!	!	!	!	!	!	!	!	!	!	!	!	!	!	!	!	!	!	!
(4ccc#\	.	&(8EE-p\L)	&(8E-p/L)	.	.	.	.	.	.	.	.	.	.	.	.	.	.	(4cc#\	.	(4g/	.	4r	.
.	.	16DD\L	16D/L	.	.	.	.	.	.	.	.	.	.	.	.	.	.	.	.	.	.	.	.
.	.	16EE-\JJ&)	16E-/JJ&)	.	.	.	.	.	.	.	.	.	.	.	.	.	.	.	.	.	.	.	.
=42	=42	=42	=42	=42	=42	=42	=42	=42	=42	=42	=42	=42	=42	=42	=42	=42	=42	=42	=42	=42	=42	=42	=42
*	*	*	*	*	*v	*v	*	*	*	*	*	*	*	*	*	*	*	*	*	*	*	*	*
4ddd\)	.	4DD'\	4D'/	.	4r	.	2.r	.	2.r	2.r	.	2.r	2.r	.	2.r	.	4dd\)	.	4f#/)	.	4r	.
4r	.	4DD'\	4D'/	.	4r	.	.	.	.	.	.	.	.	.	.	.	4r	.	4r	.	4r	.
!	!	!	!	!	! a 2	!	!	!	!	!	!	!	!	!	!	!	! (16aaP/	!	!	!	! (16aP/	!
!	!	!	!	!	! (16aaP/	!	!	!	!	!	!	!	!	!	!	!	!	!	!	!	!	!
4r	.	4ryy	4r	.	&(8ggp\L)	f	.	.	.	.	.	.	.	.	.	.	&(8ggp\L)	f	4r	.	&(8gp\L)	f
.	.	.	.	.	16ff#\L	.	.	.	.	.	.	.	.	.	.	.	16ff#\L	.	.	.	16f#\L	.
.	.	.	.	.	16gg\JJ&)	.	.	.	.	.	.	.	.	.	.	.	16gg\JJ&)	.	.	.	16g\JJ&)	.
!	!	!	! "Solo" appears here just above "Vc." in Dover.  Significance ???  Left it out.	!	!	!	!	!	!	!	!	!	!	!	!	!	!	!	!	!	!	!
=43	=43	=43	=43	=43	=43	=43	=43	=43	=43	=43	=43	=43	=43	=43	=43	=43	=43	=43	=43	=43	=43	=43
!	!	! Vc.	! Cb.	!	!	!	!	!	!	!	!	!	!	!	!	!	!	!	!	!	!	!
*	*	*	*	*	*	*	*^	*	*	*	*	*	*	*	*	*	*	*	*	*	*	*
4r	.	8G'/L	4G'\	f	4dd'\	.	[2.d\	[2.B\	f	4ee'\	4cc\	f	4dd'\	4g\	f	4GG'/	f	4dd'\	.	8B'/L	f	4d'\	.
.	.	8B'/	.	.	.	.	.	.	.	.	.	.	.	.	.	.	.	.	.	8d'/	.	.	.
4r	.	8G'/	4G'\	.	4dd'\	.	.	.	.	4ee'\	4cc\	.	4dd'\	4g\	.	4GG'/	.	4dd'\	.	8B'/	.	4d'\	.
.	.	8B'/	.	.	.	.	.	.	.	.	.	.	.	.	.	.	.	.	.	8d'/	.	.	.
! (a 2)	!	!	!	!	! (16eeP/	!	!	!	!	!	!	!	!	!	!	!	!	! (16eeP/	!	!	!	! (16eP/	!
! (16eeeP/	!	!	!	!	!	!	!	!	!	!	!	!	!	!	!	!	!	!	!	!	!	!	!
&(8dddp\L)	f	8G'/	4r	.	&(8ddp\L)	.	.	.	.	4r	4r	.	4r	4r	.	4r	.	&(8ddp\L)	.	8B'/	.	&(8dp\L)	.
16ccc#\L	.	8B'/J	.	.	16cc#\L	.	.	.	.	.	.	.	.	.	.	.	.	16cc#\L	.	8d'/J	.	16c#\L	.
16ddd\JJ&)	.	.	.	.	16dd\JJ&)	.	.	.	.	.	.	.	.	.	.	.	.	16dd\JJ&)	.	.	.	16d\JJ&)	.
=44	=44	=44	=44	=44	=44	=44	=44	=44	=44	=44	=44	=44	=44	=44	=44	=44	=44	=44	=44	=44	=44	=44	=44
4bb'\	.	(8G/L	4G'\	.	4b'\	.	2.d\]	2.B\]	.	4cc/	4e'/	.	4dd'\	4g\	.	4GG/	.	4b'\	.	(8g/L	.	4B'/	.
.	.	8B/	.	.	.	.	.	.	.	.	.	.	.	.	.	.	.	.	.	8d/	.	.	.
4bb'\	.	8G/	4G'\	.	4b'\	.	.	.	.	4cc/	4e'/	.	4dd'\	4g\	.	4GG/	.	4b'\	.	8B/	.	4B'/	.
.	.	8B/	.	.	.	.	.	.	.	.	.	.	.	.	.	.	.	.	.	8d/	.	.	.
! (16cccnP/	!	!	!	!	! (16ccnP/	!	!	!	!	!	!	!	!	!	!	!	!	! (16ccnP/	!	!	!	! (16cnP/	!
&(8bbp\L)	.	8G/	4r	.	&(8bp/L)	.	.	.	.	4r	4r	.	4r	4r	.	4r	.	&(8bp/L)	.	8B/	.	&(8Bp/L)	.
16aa\L	.	8B/J)	.	.	16a/L	.	.	.	.	.	.	.	.	.	.	.	.	16a/L	.	8d/J)	.	16A/L	.
16gg\JJ&)	.	.	.	.	16g/JJ&)	.	.	.	.	.	.	.	.	.	.	.	.	16g/JJ&)	.	.	.	16G/JJ&)	.
=45	=45	=45	=45	=45	=45	=45	=45	=45	=45	=45	=45	=45	=45	=45	=45	=45	=45	=45	=45	=45	=45	=45	=45
8ff#'\L	.	(2A/	2.D\	.	4f#/	.	2c\	2A\	.	2dd\	2g\	.	[2.dd/	[2.dd\	.	4D/	.	8f#'/L	.	(2c/	.	(2A/	.
8gg'\	.	.	.	.	.	.	.	.	.	.	.	.	.	.	.	.	.	8g'/	.	.	.	.	.
8gg#'\	.	.	.	.	4r	.	.	.	.	.	.	.	.	.	.	8D/L	.	8g#'/	.	.	.	.	.
8aa'\	.	.	.	.	.	.	.	.	.	.	.	.	.	.	.	8D/	.	8a'/	.	.	.	.	.
8bb-'\	.	4G/)	.	.	4r	.	4B\	4G\	.	4ee\	4cc\	.	.	.	.	8D/	.	8b-'/	.	4B/)	.	4G/)	.
8bbn'\J	.	.	.	.	.	.	.	.	.	.	.	.	.	.	.	8D/J	.	8bn'/J	.	.	.	.	.
=46	=46	=46	=46	=46	=46	=46	=46	=46	=46	=46	=46	=46	=46	=46	=46	=46	=46	=46	=46	=46	=46	=46	=46
*	*	*	*	*	*^	*	*	*	*	*	*	*	*	*	*	*	*	*	*	*	*	*	*
4ccc\	.	4F#/	4DD\	.	8ff#\L	8dd'\L	.	4A\	4F#\	.	2.dd\	2.g\	.	4dd/]	4dd\]	.	4D/	.	4cc\	.	4A/	.	4F#/	.
.	.	.	.	.	8gg\	8ee'\	.	.	.	.	.	.	.	.	.	.	.	.	.	.	.	.	.	.
4r	.	2ryy	4r	.	8aa\	8ff#'\	.	4r	4r	.	.	.	.	4r	4ryy	.	4r	.	4r	.	4r	.	4r	.
.	.	.	.	.	8bb\	8gg'\	.	.	.	.	.	.	.	.	.	.	.	.	.	.	.	.	.	.
!	!	!	!	!	!	!	!	!	!	!	!	!	!	!	!	!	!	!	! (16ddP/	!	!	!	!	!
4r	.	.	4r	.	8ccc\	8aa'\	.	4r	4r	.	.	.	.	4r	4ryy	.	4r	.	&(8ccp\L)	.	4r	.	4r	.
.	.	.	.	.	8bb\J	8gg'\J	.	.	.	.	.	.	.	.	.	.	.	.	16b\L	.	.	.	.	.
.	.	.	.	.	.	.	.	.	.	.	.	.	.	.	.	.	.	.	16cc\JJ&)	.	.	.	.	.
=47	=47	=47	=47	=47	=47	=47	=47	=47	=47	=47	=47	=47	=47	=47	=47	=47	=47	=47	=47	=47	=47	=47	=47	=47
*	*	*	*	*	*	*	*	*v	*v	*	*	*	*	*	*	*	*	*	*	*	*	*	*	*
!	!	!	!	!	!	!	!	! a 2	!	!	!	!	!	!	!	!	!	!	!	!	!	!	!
!	!	!	!	!	!	!	!	!	!	!	!	!	!	!	!	!	!	!	!	!	!	!	!
4r	.	8D/L	4D\	.	4aa\	4ff#\	.	8F#\L	.	4dd\	4g\	.	[2.dd/	[2.dd\	.	4D\	.	4aa'\	.	4cc/ 4d/	.	8F#/L	.
.	.	8E/	.	.	.	.	.	8G\	.	.	.	.	.	.	.	.	.	.	.	.	.	8G/	.
4r	.	8F#/	4D\	.	4r	4r	.	8A\	.	4dd\	4g\	.	.	.	.	8D\L	.	4aa'\	.	4cc/ 4d/	.	8A/	.
.	.	8G/	.	.	.	.	.	8B\	.	.	.	.	.	.	.	8D\	.	.	.	.	.	8B/	.
! (16ggP/	!	!	!	!	!	!	!	!	!	!	!	!	!	!	!	!	!	! (16ggP/	!	!	!	!	!
&(8ff#p\L)	.	8A/	4r	.	4r	4r	.	8c\	.	4dd\	4g\	.	.	.	.	8D\	.	&(8ff#p\L)	.	4r	.	8c/	.
16ee\L	.	8B/J	.	.	.	.	.	8d\J	.	.	.	.	.	.	.	8D\J	.	16ee\L	.	.	.	8d/J	.
16dd\JJ&)	.	.	.	.	.	.	.	.	.	.	.	.	.	.	.	.	.	16dd\JJ&)	.	.	.	.	.
=48	=48	=48	=48	=48	=48	=48	=48	=48	=48	=48	=48	=48	=48	=48	=48	=48	=48	=48	=48	=48	=48	=48	=48
4ccc'\	.	8c/L	4D\	.	2.r	2.r	.	8e\L	.	2dd\	2g\	.	2.dd/]	2.dd\]	.	4D\	.	4cc'\	.	4a/ 4f#/	.	8e\L	.
.	.	8d/]	.	.	.	.	.	8f#\	.	.	.	.	.	.	.	.	.	.	.	.	.	8f#\	.
4ccc'\	.	8e/	4D\	.	.	.	.	8g\	.	.	.	.	.	.	.	8D\L	.	4cc'\	.	4a/ 4f#/	.	8g\	.
.	.	8f#/J	.	.	.	.	.	8f#\	.	.	.	.	.	.	.	8D\J	.	.	.	.	.	8a\J	.
! (16cccP/	!	!	!	!	!	!	!	!	!	!	!	!	!	!	!	!	!	! (16ccP/	!	!	!	!	!
&(8bbp\L)	.	4g/	4GG\	.	.	.	.	8g\	.	4ee\	4cc\	.	.	.	.	4GG/	.	&(8bp/L)	.	4b/ 4g/	.	4b\	.
16aa\L	.	.	.	.	.	.	.	8B\J	.	.	.	.	.	.	.	.	.	16a/L	.	.	.	.	.
16gg\JJ&)	.	.	.	.	.	.	.	.	.	.	.	.	.	.	.	.	.	16g/JJ&)	.	.	.	.	.
=49	=49	=49	=49	=49	=49	=49	=49	=49	=49	=49	=49	=49	=49	=49	=49	=49	=49	=49	=49	=49	=49	=49	=49
8aa'\L	.	4c/	4C\	.	2.r	2.r	.	4c\	.	4ff\	4dd\	.	2ee/	2cc\	.	4GG/	.	8a'\L	.	4e/	.	4cc\	.
8bb'\	.	.	.	.	.	.	.	.	.	.	.	.	.	.	.	.	.	8b'\	.	.	.	.	.
8ccc'\	.	4r	4ryy	.	.	.	.	4r	.	4r	4r	.	.	.	.	4r	.	8cc'\	.	4r	.	4r	.
8ddd'\	.	.	.	.	.	.	.	.	.	.	.	.	.	.	.	.	.	8dd'\	.	.	.	.	.
8eee'\	.	4D/	4D\	.	.	.	.	4D\	.	4dd\	4g\	.	4dd/	4dd\	.	4D\	.	8ee'\	.	4cc\	.	4a\	.
8fff#'\J	.	.	.	.	.	.	.	.	.	.	.	.	.	.	.	.	.	8ff#'\J	.	.	.	.	.
=50	=50	=50	=50	=50	=50	=50	=50	=50	=50	=50	=50	=50	=50	=50	=50	=50	=50	=50	=50	=50	=50	=50	=50
*	*	*v	*v	*	*	*	*	*	*	*	*	*	*	*	*	*	*	*	*	*	*	*	*
!	!	! Vc. + Cb.	!	!	!	!	!	!	!	!	!	!	!	!	!	!	!	!	!	!	!	!
!	!	!	!	!	!	!	!	!	!	!	!	!	!	!	!	!	!	!	!	!	!	!
2.ggg\	ff	8G'\L	ff	(4gg/	(4gg\	ff	4G\	ff	4cc/	4c/	ff	2.dd\	2.g\	ff	4GG/	ff	4gg'\	ff	8b'\L	ff	8g'\L	ff
.	.	8A'\	.	.	.	.	.	.	.	.	.	.	.	.	.	.	.	.	8cc'\	.	8a'\	.
.	.	8B'\	.	4ffn/	4ffn\	.	4g\	.	8cc/L	8c/L	.	.	.	.	4GG/	.	4gg'\	.	8dd'\	.	8b'\	.
.	.	8c'\	.	.	.	.	.	.	8cc/J	8c/J	.	.	.	.	.	.	.	.	8ee'\	.	8cc'\	.
.	.	8d'\	.	4dd/)	4dd\)	.	4fn\	.	4cc/	4c/	.	.	.	.	4GG/	.	4gg'\	.	8ffn'\	.	8dd'\	.
.	.	8B'\J	.	.	.	.	.	.	.	.	.	.	.	.	.	.	.	.	8dd'\J	.	8b'\J	.
=51	=51	=51	=51	=51	=51	=51	=51	=51	=51	=51	=51	=51	=51	=51	=51	=51	=51	=51	=51	=51	=51	=51
2.ccc\	.	8c'\L	.	4ee/	8ee\L	.	4e\	.	4cc/	4cc\	.	4ee\	4cc\	.	4GG/	.	4ccc'\	.	8ee'/L	.	8cc'\L	.
.	.	8B'\	.	.	8dd\	.	.	.	.	.	.	.	.	.	.	.	.	.	8dd'/	.	8b'\	.
.	.	8A'\	.	4ccc/	8cc\	.	4r	.	8cc/L	8cc\L	.	4r	4ryy	.	4r	.	4ccc'\	.	8cc'/	.	8a'\	.
.	.	8G'\	.	.	8b\	.	.	.	8cc/J	8cc\J	.	.	.	.	.	.	.	.	8b'/	.	8g'\	.
.	.	8F#'\	.	4ccc/	8a\	.	4r	.	4dd/	4g\	.	4r	4ryy	.	4D/	.	4ccc'\	.	8a'/	.	8f#'\	.
.	.	8D'\J	.	.	8ff#\J	.	.	.	.	.	.	.	.	.	.	.	.	.	8f#'/J	.	8d'\J	.
=52	=52	=52	=52	=52	=52	=52	=52	=52	=52	=52	=52	=52	=52	=52	=52	=52	=52	=52	=52	=52	=52	=52
4bb\	.	4G\	.	8bb\L	8gg\L	.	8B\L	.	4ee\	4cc\	.	2.r	2.r	.	4GG/	.	8bb'\L	.	8b'/L	.	8g'\L	.
.	.	.	.	8aa\	8ff#\	.	8c\	.	.	.	.	.	.	.	.	.	8aa'\	.	8a'/	.	8f#'\	.
4r	.	4r	.	8gg\	8ee\	.	8d\	.	4r	4r	.	.	.	.	4r	.	8gg'\	.	8g'/	.	8e'\	.
.	.	.	.	8ff#\	8dd\	.	8e\	.	.	.	.	.	.	.	.	.	8ff#'\	.	8f#/	.	8d'\	.
4r	.	4BB/	.	8ee\	8cc\	.	8f#\	.	4r	4r	.	.	.	.	4r	.	8ee'\	.	8e'/	.	8c'\	.
.	.	.	.	8dd\J	8b\J	.	8g\J	.	.	.	.	.	.	.	.	.	8dd'\J	.	8d'/J	.	8B'\J	.
=53	=53	=53	=53	=53	=53	=53	=53	=53	=53	=53	=53	=53	=53	=53	=53	=53	=53	=53	=53	=53	=53	=53
4r	.	4C/	.	4cc\	4a\	.	4c\	.	4r	4r	.	4r	4ryy	.	4r	.	8cc/L	.	8e/L	.	4c\	.
.	.	.	.	.	.	.	.	.	.	.	.	.	.	.	.	.	8b/	.	8d/	.	.	.
4r	.	4r	.	4r	4r	.	4r	.	4r	4r	.	4r	4ryy	.	4r	.	8a/	.	8c/	.	4r	.
.	.	.	.	.	.	.	.	.	.	.	.	.	.	.	.	.	8g/J	.	8B/	.	.	.
! (16ggP/	!	!	!	!	!	!	!	!	!	!	!	!	!	!	!	!	! (16gP/	!	!	!	!	!
&(8ff#p\L)	.	4D\	.	(4cc\	(4a\	.	4D\	.	4dd\	4g\	.	4dd/	4dd\	.	4D/	.	&(8f#p/L)	.	8A/	.	4d\	.
16ee\L	.	.	.	.	.	.	.	.	.	.	.	.	.	.	.	.	16e/L	.	8c/J	.	.	.
16ff#\JJ&)	.	.	.	.	.	.	.	.	.	.	.	.	.	.	.	.	16f#/JJ&)	.	.	.	.	.
=54	=54	=54	=54	=54	=54	=54	=54	=54	=54	=54	=54	=54	=54	=54	=54	=54	=54	=54	=54	=54	=54	=54
*	*	*	*	*	*	*	*^	*	*	*	*	*	*	*	*	*	*	*	*	*	*	*
4gg'\	.	4G\	.	4b/)	4g/)	.	4G\	4ryy	.	4ee\	4cc\	.	4gg/	4g\	.	4GG/	.	4g'/	.	8B/L	.	8G/L	.
.	.	.	.	.	.	.	.	.	.	.	.	.	.	.	.	.	.	.	.	8d/	.	8B/	.
4ddd'\	.	4r	.	4r	4r	.	4d\	4B\	.	4r	4r	.	4r	4ryy	.	4r	.	4dd'\	.	8B/	.	8G/	.
.	.	.	.	.	.	.	.	.	.	.	.	.	.	.	.	.	.	.	.	8d/	.	8B/	.
! (16ggP/	!	!	!	!	!	!	!	!	!	!	!	!	!	!	!	!	!	! (16gP/	!	!	!	!	!
&(8ff#p\L)	.	4D\	.	(4a/	(4f#/	.	4c\	4A\	.	4dd\	4g\	.	4dd/	4dd\	.	4D/	.	&(8f#p/L)	.	8c/	.	8c/	.
16ee\L	.	.	.	.	.	.	.	.	.	.	.	.	.	.	.	.	.	16e/L	.	8d/J	.	8A/J	.
16ff#\JJ&)	.	.	.	.	.	.	.	.	.	.	.	.	.	.	.	.	.	16f#/JJ&)	.	.	.	.	.
=55	=55	=55	=55	=55	=55	=55	=55	=55	=55	=55	=55	=55	=55	=55	=55	=55	=55	=55	=55	=55	=55	=55	=55
4gg'\	.	4GG/	.	4b/)	4g/)	.	4B\	4G\	.	4ee\	4cc\	.	4gg/	4g\	.	4GG/	.	4g'/	.	8B/L	.	8G/L	.
.	.	.	.	.	.	.	.	.	.	.	.	.	.	.	.	.	.	.	.	8d/	.	8B/	.
4ddd'\	.	4r	.	4r	4r	.	4d\	4B\	.	4r	4r	.	4r	4ryy	.	4r	.	4dd'\	.	8B/	.	8G/	.
.	.	.	.	.	.	.	.	.	.	.	.	.	.	.	.	.	.	.	.	8d/	.	8B/	.
4ff#\	.	4D\	.	(4ff#\	(4cc\	.	4c\	4A\	.	4dd\	4g\	.	4dd/	4dd\	.	4D/	.	4ff#/ 4a/ 4d/	.	8c/	.	8c/	.
.	.	.	.	.	.	.	.	.	.	.	.	.	.	.	.	.	.	.	.	8d/J	.	8A/J	.
=56	=56	=56	=56	=56	=56	=56	=56	=56	=56	=56	=56	=56	=56	=56	=56	=56	=56	=56	=56	=56	=56	=56	=56
*>1st ending	*	*>1st ending	*	*>1st ending	*	*	*>1st ending	*	*	*>1st ending	*	*	*>1st ending	*	*	*>1st ending	*	*>1st ending	*	*>1st ending	*	*>1st ending	*
4gg\	.	4GG/	.	4gg\)	4b\)	.	4B\	4G\	.	4cc/	4e/	.	4gg\	4g\	.	4GG/	.	4gg\ 4b\ 4d\	.	4B/	.	4G/	.
4r	.	4r	.	4r	4ryy	.	4r	2ryy	.	4r	4ryy	.	4r	4ryy	.	4r	.	4r	.	4r	.	4r	.
4ryy	.	4ryy	.	4ryy	4ryy	.	4ryy	.	.	4ryy	4ryy	.	4ryy	4ryy	.	4ryy	.	4ryy	.	4ryy	.	4ryy	.
=57:|!	=57:|!	=57:|!	=57:|!	=57:|!	=57:|!	=57:|!	=57:|!	=57:|!	=57:|!	=57:|!	=57:|!	=57:|!	=57:|!	=57:|!	=57:|!	=57:|!	=57:|!	=57:|!	=57:|!	=57:|!	=57:|!	=57:|!	=57:|!
*>2nd ending	*	*>2nd ending	*	*>2nd ending	*	*	*>2nd ending	*	*	*>2nd ending	*	*	*>2nd ending	*	*	*>2nd ending	*	*>2nd ending	*	*>2nd ending	*	*>2nd ending	*
*>C	*	*>C	*	*>C	*	*	*>C	*	*	*>C	*	*	*>C	*	*	*>C	*	*>C	*	*>C	*	*>C	*
4gg\	.	4GG/	.	4gg\	4b\	.	4B\	4G\	.	4cc/	4e/	.	4gg\	4g\	.	4GG/	.	4gg\ 4b\ 4d\	.	4B/	.	4G/	.
8.r	.	8.r	.	8.r	8.ryy	.	2ryy	8.r	.	8.r	8.ryy	.	8.r	8.ryy	.	8.r	.	8.r	.	8.r	.	8.r	.
=!|:	=!|:	=!|:	=!|:	=!|:	=!|:	=!|:	=!|:	=!|:	=!|:	=!|:	=!|:	=!|:	=!|:	=!|:	=!|:	=!|:	=!|:	=!|:	=!|:	=!|:	=!|:	=!|:	=!|:
*>D	*	*>D	*	*	*	*	*	*	*	*	*	*	*	*	*	*>D	*	*>D	*	*>D	*	*>D	*
*M3/4	*	*M3/4	*	*	*	*	*	*	*	*	*	*	*	*	*	*M3/4	*	*M3/4	*	*M3/4	*	*	*
! TRIO	!	! TRIO	!	!	!	!	!	!	!	!	!	!	!	!	!	! TRIO	!	! TRIO	!	! TRIO	!	!	!
! I Solo	!	!	!	!	!	!	!	!	!	!	!	!	!	!	!	!	!	!	!	!	!	!	!
*	*	*	*	*v	*v	*	*	*	*	*	*	*	*	*	*	*	*	*	*	*	*	*	*
*	*	*	*	*>D	*	*	*	*	*	*	*	*	*	*	*	*	*	*	*	*	*	*
*	*	*	*	*M3/4	*	*	*	*	*	*	*	*	*	*	*	*	*	*	*	*	*	*
!	!	!	!	! TRIO	!	!	!	!	!	!	!	!	!	!	!	!	!	!	!	!	!	!
!	!	!	!	! I.	!	!	!	!	!	!	!	!	!	!	!	!	!	!	!	!	!	!
!	!	!	!	!	!	!	!	!	!	!	!	!	!	!	!	!	!	!	!	!	!	!
!	!	!	!	!	!	!	!	!	!	!	!	!	!	!	!	!	!	!	!	!	!	!
*	*	*	*	*	*	*v	*v	*	*	*	*	*	*	*	*	*	*	*	*	*	*	*
*	*	*	*	*	*	*>D	*	*	*	*	*	*	*	*	*	*	*	*	*	*	*
*	*	*	*	*	*	*M3/4	*	*	*	*	*	*	*	*	*	*	*	*	*	*	*
!	!	!	!	!	!	! TRIO	!	!	!	!	!	!	!	!	!	!	!	!	!	!	!
!	!	!	!	!	!	!	!	!	!	!	!	!	!	!	!	!	!	!	!	!	!
*	*	*	*	*	*	*	*	*v	*v	*	*	*	*	*	*	*	*	*	*	*	*
*	*	*	*	*	*	*	*	*>D	*	*	*	*	*	*	*	*	*	*	*	*
*	*	*	*	*	*	*	*	*M3/4	*	*	*	*	*	*	*	*	*	*	*	*
!	!	!	!	!	!	!	!	! TRIO	!	!	!	!	!	!	!	!	!	!	!	!
!	!	!	!	!	!	!	!	!	!	!	!	!	!	!	!	!	!	!	!	!
*	*	*	*	*	*	*	*	*	*	*v	*v	*	*	*	*	*	*	*	*	*
*	*	*	*	*	*	*	*	*	*	*>D	*	*	*	*	*	*	*	*	*
*	*	*	*	*	*	*	*	*	*	*M3/4	*	*	*	*	*	*	*	*	*
!	!	!	!	!	!	!	!	!	!	! TRIO	!	!	!	!	!	!	!	!	!
!	!	!	!	!	!	!	!	!	!	!	!	!	!	!	!	!	!	!	!
(16bb\LK	p	16r	.	(16gg\LK	p	16r	.	16r	.	16r	.	16r	.	(16b/LK	p	(16g/LK	p	16r	.
8aa\)	.	4r	.	8ff#\)	.	4r	.	4r	.	4r	.	4r	.	8a/)	.	8f#/)	.	4r	.
16r	.	.	.	16r	.	.	.	.	.	.	.	.	.	16r	.	16r	.	.	.
(16bb\Jk	.	.	.	(16gg\Jk	.	.	.	.	.	.	.	.	.	(16b/Jk	.	(16g/Jk	.	.	.
16ryy	.	16ryy	.	16ryy	.	16ryy	.	16ryy	.	16ryy	.	16ryy	.	16ryy	.	16ryy	.	16ryy	.
16ryy	.	16ryy	.	16ryy	.	16ryy	.	16ryy	.	16ryy	.	16ryy	.	16ryy	.	16ryy	.	16ryy	.
16ryy	.	16ryy	.	16ryy	.	16ryy	.	16ryy	.	16ryy	.	16ryy	.	16ryy	.	16ryy	.	16ryy	.
16ryy	.	16ryy	.	16ryy	.	16ryy	.	16ryy	.	16ryy	.	16ryy	.	16ryy	.	16ryy	.	16ryy	.
16ryy	.	16ryy	.	16ryy	.	16ryy	.	16ryy	.	16ryy	.	16ryy	.	16ryy	.	16ryy	.	16ryy	.
16ryy	.	16ryy	.	16ryy	.	16ryy	.	16ryy	.	16ryy	.	16ryy	.	16ryy	.	16ryy	.	16ryy	.
16ryy	.	16ryy	.	16ryy	.	16ryy	.	16ryy	.	16ryy	.	16ryy	.	16ryy	.	16ryy	.	16ryy	.
=58	=58	=58	=58	=58	=58	=58	=58	=58	=58	=58	=58	=58	=58	=58	=58	=58	=58	=58	=58
*	*	*	*	*	*	*	*	*^	*	*^	*	*	*	*	*	*	*	*	*
8ccc\L)	.	2.r	.	8aa\L)	.	2.r	.	2.r	2.r	.	2.r	2.r	.	2.r	.	8cc/L)	.	8a/L)	.	2.r	.
16r	.	.	.	16r	.	.	.	.	.	.	.	.	.	.	.	16r	.	16r	.	.	.
(16bb\	.	.	.	(16gg\k	.	.	.	.	.	.	.	.	.	.	.	(16b/k	.	(16g/k	.	.	.
8aa\)	.	.	.	8ff#\)	.	.	.	.	.	.	.	.	.	.	.	8a/)	.	8f#/)	.	.	.
16r	.	.	.	16r	.	.	.	.	.	.	.	.	.	.	.	16r	.	16r	.	.	.
(16gg\k	.	.	.	(16ee\k	.	.	.	.	.	.	.	.	.	.	.	(16g/k	.	(16e/k	.	.	.
8ff#\)	.	.	.	8dd\)	.	.	.	.	.	.	.	.	.	.	.	8f#/)	.	8d/)	.	.	.
16r	.	.	.	16r	.	.	.	.	.	.	.	.	.	.	.	16r	.	16r	.	.	.
(16ee\Jk	.	.	.	(16cc\Jk	.	.	.	.	.	.	.	.	.	.	.	(16e/Jk	.	(16c/Jk	.	.	.
=59	=59	=59	=59	=59	=59	=59	=59	=59	=59	=59	=59	=59	=59	=59	=59	=59	=59	=59	=59	=59	=59
&(4dd\)	.	(2.GG/	p	&(2b\)	.	2.r	.	2.r	2.r	.	2.r	2.r	.	2.r	.	&(4d/)	.	&(2B/)	.	4r	.
4gg\	.	.	.	.	.	.	.	.	.	.	.	.	.	.	.	4g/	.	.	.	(4d\	p
4bb\&)	.	.	.	4dd\&)	.	.	.	.	.	.	.	.	.	.	.	4b/&)	.	4d/&)	.	4B/)	.
=60	=60	=60	=60	=60	=60	=60	=60	=60	=60	=60	=60	=60	=60	=60	=60	=60	=60	=60	=60	=60	=60
(4ee\	.	2C/	.	(2ee\	.	2.r	.	2.r	2.r	.	2.r	2.r	.	2.r	.	(4e/	.	(2e/	.	(4G/	.
4aa\	.	.	.	.	.	.	.	.	.	.	.	.	.	.	.	4a/	.	.	.	4e\)	.
4ccc\)	.	4AA/)	.	4aa\)	.	.	.	.	.	.	.	.	.	.	.	4cc\)	.	4a/)	.	4e\	.
=61	=61	=61	=61	=61	=61	=61	=61	=61	=61	=61	=61	=61	=61	=61	=61	=61	=61	=61	=61	=61	=61
(4bb\	.	4D\	.	(4gg\	.	2.r	.	2.r	2.r	.	2.r	2.r	.	2.r	.	(4b\	.	(4g/	.	4d\	.
8aa\)	.	4r	.	8ff#\)	.	.	.	.	.	.	.	.	.	.	.	8a/)	.	8f#/)	.	4r	.
16r	.	.	.	16r	.	.	.	.	.	.	.	.	.	.	.	16r	.	16r	.	.	.
(16bb\LK	.	.	.	(16gg\LK	.	.	.	.	.	.	.	.	.	.	.	(16b/LK	.	(16g/LK	.	.	.
8aa\)	.	4r	.	8ff#\)	.	.	.	.	.	.	.	.	.	.	.	8a/)	.	8f#/)	.	4r	.
16r	.	.	.	16r	.	.	.	.	.	.	.	.	.	.	.	16r	.	16r	.	.	.
(16bb\Jk	.	.	.	(16gg\Jk	.	.	.	.	.	.	.	.	.	.	.	(16b/Jk	.	(16g/Jk	.	.	.
=62	=62	=62	=62	=62	=62	=62	=62	=62	=62	=62	=62	=62	=62	=62	=62	=62	=62	=62	=62	=62	=62
8ccc\L)	.	2.r	.	8aa\L)	.	2.r	.	2.r	2.r	.	2.r	2.r	.	2.r	.	8cc/L)	.	8a/L)	.	2.r	.
16r	.	.	.	16r	.	.	.	.	.	.	.	.	.	.	.	16r	.	16r	.	.	.
(16bb\k	.	.	.	(16gg\k	.	.	.	.	.	.	.	.	.	.	.	(16b/k	.	(16g/k	.	.	.
8aa\)	.	.	.	8ff#\)	.	.	.	.	.	.	.	.	.	.	.	8a/)	.	8f#/)	.	.	.
16r	.	.	.	16r	.	.	.	.	.	.	.	.	.	.	.	16r	.	16r	.	.	.
(16gg\k	.	.	.	(16ee\k	.	.	.	.	.	.	.	.	.	.	.	(16g/k	.	(16e/k	.	.	.
8ff#\)	.	.	.	8dd\)	.	.	.	.	.	.	.	.	.	.	.	16f#/)	.	8d/)	.	.	.
.	.	.	.	.	.	.	.	.	.	.	.	.	.	.	.	8r	.	.	.	.	.
16r	.	.	.	16r	.	.	.	.	.	.	.	.	.	.	.	.	.	16r	.	.	.
16ee\Jk	.	.	.	16cc\Jk	.	.	.	.	.	.	.	.	.	.	.	16e/Jk	.	16c/Jk	.	.	.
=63	=63	=63	=63	=63	=63	=63	=63	=63	=63	=63	=63	=63	=63	=63	=63	=63	=63	=63	=63	=63	=63
(4dd\	.	(2GG/	.	(2b\	.	2.r	.	2.r	2.r	.	2.r	2.r	.	2.r	.	(4d/	.	(2B/	.	4r	.
4ddd\)	.	.	.	.	.	.	.	.	.	.	.	.	.	.	.	4dd\)	.	.	.	4r	.
! (16dddP/	!	!	!	!	!	!	!	!	!	!	!	!	!	!	!	! (16ddP/	!	!	!	!	!
&(8cccp\L)	.	4C/	.	8ee\L	.	.	.	.	.	.	.	.	.	.	.	&(8ccp\L)	.	8e/L	.	4E/	.
16bb\L	.	.	.	8cc\J)	.	.	.	.	.	.	.	.	.	.	.	16b\L	.	8c/J)	.	.	.
16aa\JJ&)	.	.	.	.	.	.	.	.	.	.	.	.	.	.	.	16a\JJ&)	.	.	.	.	.
=64	=64	=64	=64	=64	=64	=64	=64	=64	=64	=64	=64	=64	=64	=64	=64	=64	=64	=64	=64	=64	=64
(2gg\	.	2.D\)	.	(2b\	.	2.r	.	2.r	2.r	.	2.r	2.r	.	2.r	.	(2g/	.	(2B/	.	(2G/	.
!	!	!	!	! 8ddP/	!	!	!	!	!	!	!	!	!	!	!	!	!	! 8dP/	!	!	!
8.aa\L	.	.	.	4ccp\)	.	.	.	.	.	.	.	.	.	.	.	8.a/L	.	4cp/)	.	4F#/)	.
16bb\Jk)	.	.	.	.	.	.	.	.	.	.	.	.	.	.	.	16b/Jk)	.	.	.	.	.
=65	=65	=65	=65	=65	=65	=65	=65	=65	=65	=65	=65	=65	=65	=65	=65	=65	=65	=65	=65	=65	=65
*	*	*	*	*	*	*	*	*v	*v	*	*	*	*	*	*	*	*	*	*	*	*
*	*	*	*	*	*	*	*	*	*	*v	*v	*	*	*	*	*	*	*	*	*
4gg'\	.	4GG/	.	4b'\	.	4r	.	4r	.	4r	.	4r	.	4g'/	.	4B'/	.	4G'/	.
8.r	.	8.G\	.	8.r	.	8.r	.	8.r	.	8.r	.	8.r	.	8.r	.	8.r	.	8.r	.
=:!!:	=:!!:	=:!!:	=:!!:	=:!!:	=:!!:	=:!!:	=:!!:	=:!!:	=:!!:	=:!!:	=:!!:	=:!!:	=:!!:	=:!!:	=:!!:	=:!!:	=:!!:	=:!!:	=:!!:
*>E	*	*	*	*>E	*	*>E	*	*>E	*	*>E	*	*>E	*	*>E	*	*>E	*	*>E	*
*	*	*^	*	*	*	*	*	*	*	*	*	*	*	*	*	*	*	*	*
*	*	*>E	*	*	*	*	*	*	*	*	*	*	*	*	*	*	*	*	*	*
16r	.	16r	2ryy	.	16r	.	16r	.	16r	.	16r	.	16r	.	(16b/LK	.	(16g/LK	.	16r	.
!	!	! Vc.	!	!	!	!	!	!	!	!	!	!	!	!	!	!	!	!	!	!
4r	.	4d\	.	.	4r	.	4r	.	4r	.	4r	.	4r	.	8a/)	.	8f#/)	.	4r	.
.	.	.	.	.	.	.	.	.	.	.	.	.	.	.	16r	.	16r	.	.	.
.	.	.	.	.	.	.	.	.	.	.	.	.	.	.	16cc/Jk	.	16a/Jk	.	.	.
16ryy	.	16ryy	.	.	16ryy	.	16ryy	.	16ryy	.	16ryy	.	16ryy	.	16ryy	.	16ryy	.	16ryy	.
16ryy	.	16ryy	.	.	16ryy	.	16ryy	.	16ryy	.	16ryy	.	16ryy	.	16ryy	.	16ryy	.	16ryy	.
16ryy	.	16ryy	.	.	16ryy	.	16ryy	.	16ryy	.	16ryy	.	16ryy	.	16ryy	.	16ryy	.	16ryy	.
16ryy	.	16ryy	4r	.	16ryy	.	16ryy	.	16ryy	.	16ryy	.	16ryy	.	16ryy	.	16ryy	.	16ryy	.
16ryy	.	16ryy	.	.	16ryy	.	16ryy	.	16ryy	.	16ryy	.	16ryy	.	16ryy	.	16ryy	.	16ryy	.
16ryy	.	16ryy	.	.	16ryy	.	16ryy	.	16ryy	.	16ryy	.	16ryy	.	16ryy	.	16ryy	.	16ryy	.
16ryy	.	16ryy	.	.	16ryy	.	16ryy	.	16ryy	.	16ryy	.	16ryy	.	16ryy	.	16ryy	.	16ryy	.
=66	=66	=66	=66	=66	=66	=66	=66	=66	=66	=66	=66	=66	=66	=66	=66	=66	=66	=66	=66	=66
*	*	*v	*v	*	*^	*	*	*	*^	*	*^	*	*	*	*	*	*	*	*	*
!	!	!	!	!	!	!	! (I)	!	!	!	!	!	!	!	!	!	!	!	!	!	!	!
2.r	.	4G\	.	2.r	2.r	.	[2.d\	p	2.r	2.r	.	2.r	2.r	.	2.r	.	(4b/	.	4g/	.	2.r	.
.	.	8.r	.	.	.	.	.	.	.	.	.	.	.	.	.	.	8g/)	.	4r	.	.	.
.	.	.	.	.	.	.	.	.	.	.	.	.	.	.	.	.	16r	.	.	.	.	.
.	.	(16G\LK	.	.	.	.	.	.	.	.	.	.	.	.	.	.	(16B/LK	.	.	.	.	.
.	.	8F#\)	.	.	.	.	.	.	.	.	.	.	.	.	.	.	8A/)	.	[4d/	.	.	.
.	.	16r	.	.	.	.	.	.	.	.	.	.	.	.	.	.	16r	.	.	.	.	.
.	.	(16A\Jk	.	.	.	.	.	.	.	.	.	.	.	.	.	.	16c/Jk	.	.	.	.	.
=67	=67	=67	=67	=67	=67	=67	=67	=67	=67	=67	=67	=67	=67	=67	=67	=67	=67	=67	=67	=67	=67	=67
2.r	.	4G\)	.	2.r	2.r	.	2.d\_	.	2.r	2.r	.	2.r	2.r	.	2.r	.	(4B/	.	4d/]	.	2.r	.
.	.	4r	.	.	.	.	.	.	.	.	.	.	.	.	.	.	8G/)	.	8.r	.	.	.
.	.	.	.	.	.	.	.	.	.	.	.	.	.	.	.	.	16r	.	.	.	.	.
.	.	.	.	.	.	.	.	.	.	.	.	.	.	.	.	.	(16b\LK	.	(16g/LK	.	.	.
.	.	4d\	.	.	.	.	.	.	.	.	.	.	.	.	.	.	8a\)	.	8f#/)	.	.	.
.	.	.	.	.	.	.	.	.	.	.	.	.	.	.	.	.	16r	.	16r	.	.	.
.	.	.	.	.	.	.	.	.	.	.	.	.	.	.	.	.	16cc\Jk	.	16a/Jk	.	.	.
=68	=68	=68	=68	=68	=68	=68	=68	=68	=68	=68	=68	=68	=68	=68	=68	=68	=68	=68	=68	=68	=68	=68
2.r	.	(4G\	.	2.r	2.r	.	2d\]	.	2.r	2.r	.	2.r	2.r	.	2.r	.	(4b\	.	(4g/	<	2.r	.
.	.	4E\	.	.	.	.	.	.	.	.	.	.	.	.	.	.	4gg\	.	4b/	.	.	.
.	.	4A\)	.	.	.	.	4g\	.	.	.	.	.	.	.	.	.	4cc#\)	.	4e/)	]	.	.
=69	=69	=69	=69	=69	=69	=69	=69	=69	=69	=69	=69	=69	=69	=69	=69	=69	=69	=69	=69	=69	=69	=69
*	*	*	*	*v	*v	*	*	*	*	*	*	*	*	*	*	*	*	*	*	*	*	*
*	*	*	*	*	*	*	*	*v	*v	*	*	*	*	*	*	*	*	*	*	*	*
!	!	!	!	!	!	!	!	! a 2.	!	!	!	!	!	!	!	!	!	!	!	!
!	!	!	!	!	!	!	!	!	!	!	!	!	!	!	!	!	!	!	!	!
*	*	*	*	*	*	*	*	*	*	*v	*v	*	*	*	*	*	*	*	*	*
!	!	!	!	!	!	!	!	!	!	! a 2.	!	!	!	!	!	!	!	!	!
!	!	!	!	!	!	!	!	!	!	!	!	!	!	!	!	!	!	!	!
8.ddd\L	f	4D\	.	4r	.	4f#\	.	8.g/L	f	8.dd\L	f	8.D\L	f	8.dd/L 8.d/	f	4f#/	.	4r	.
16ddd\k	.	.	.	.	.	.	.	16g/k	.	16dd\k	.	16D\k	.	16dd/ 16d/k	.	.	.	.	.
8.ddd\	.	8.r	.	8.r	.	8.r	.	8.g/	.	8.dd\	.	8.D\	.	8.dd/ 8.d/	.	8.r	.	8.r	.
!	!	! Vc. & Cb.	!	! a 2.	!	! a 2.	!	!	!	!	!	!	!	!	!	!	!	!	!
16ddd\k	.	16D\LK	f	16dd\LK	f	16D\LK	f	16g/k	.	16dd\k	.	16D\k	.	16dd/ 16d/k	.	16d/LK	f	16d\LK	f
8.ddd\	.	8.E\	.	8.ee\	.	8.E\	.	8.g/	.	8.dd\	.	8.D\	.	8.dd/ 8.d/	.	8.e/	.	8.e\	.
16ddd\Jk	.	16F#\Jk	.	16ff#\Jk	.	16F#\Jk	.	16g/Jk	.	16dd\Jk	.	16D\Jk	.	16dd/ 16d/Jk	.	16f#/Jk	.	16f#\Jk	.
=70	=70	=70	=70	=70	=70	=70	=70	=70	=70	=70	=70	=70	=70	=70	=70	=70	=70	=70	=70
8.ddd\L	.	8.G\L	.	8.gg\L	.	8.G\L	.	8.g/L	.	8.dd\L	.	8.D\L	.	8.dd/ 8.d/L	.	8.g/L	.	8.g\L	.
16ddd\k	.	16F#\k	.	16ff#\k	.	16F#\k	.	16g/k	.	16dd\k	.	16D\k	.	16dd/ 16d/k	.	16f#/k	.	16f#\k	.
8.ddd\	.	8.G\	.	8.gg\	.	8.G\	.	8.g/	.	8.dd\	.	8.D\	.	8.dd/ 8.d/	.	8.g/	.	8.g\	.
16ddd\k	.	16B-\k	.	16bb-\k	.	16B-\k	.	16g/k	.	16dd\k	.	16D\k	.	16dd/ 16d/k	.	16b-/k	.	16b-\k	.
8.ddd\	.	8.A\	.	8.aa\	.	8.A\	.	8.g/	.	8.dd\	.	8.D\	.	8.dd/ 8.d/	.	8.a/	.	8.a\	.
16ddd\Jk	.	16G\Jk	.	16gg\Jk	.	16G\Jk	.	16g/Jk	.	16dd\Jk	.	16D\Jk	.	16dd/ 16d/Jk	.	16g/Jk	.	16g\Jk	.
=71	=71	=71	=71	=71	=71	=71	=71	=71	=71	=71	=71	=71	=71	=71	=71	=71	=71	=71	=71
8.ddd\L	.	8.F#/L	.	8.ff#\L	.	8.F#/L	.	8.g/L	.	8.dd\L	.	8.D\L	.	8.dd/ 8.d/L	.	8.f#/L	.	8.f#\L	.
16ddd\k	.	16E-/k	.	16ee-\k	.	16E-/k	.	16g/k	.	16dd\k	.	16D\k	.	16dd/ 16d/k	.	16e-/k	.	16e-\k	.
8.ddd\	.	8.D/	.	8.dd\	.	8.D/	.	8.g/	.	8.dd\	.	8.D\	.	8.dd/ 8.d/	.	8.d/	.	8.d\	.
16ddd\k	.	16C/k	.	16cc\k	.	16C/k	.	16g/k	.	16dd\k	.	16D\k	.	16dd/ 16d/k	.	16c/k	.	16c\k	.
8.ddd\	.	8.BB-/	.	8.b-\	.	8.BB-/	.	8.g/	.	8.dd\	.	8.D\	.	8.dd/ 8.d/	.	8.B-/	.	8.B-\	.
16ddd\Jk	.	16AA/Jk	.	16a\Jk	.	16AA/Jk	.	16g/Jk	.	16dd\Jk	.	16D\Jk	.	16dd/ 16d/Jk	.	16A/Jk	.	16A\Jk	.
=72	=72	=72	=72	=72	=72	=72	=72	=72	=72	=72	=72	=72	=72	=72	=72	=72	=72	=72	=72
8.ddd\L	.	8.GG/L	.	8.g/L	.	8.GG/L	.	8.g/L	.	8.dd\L	.	8.D\L	.	8.dd/ 8.d/L	.	8.G/L	.	8.G/L	.
16ddd\k	.	16FF#/k	.	16f#/k	.	16FF#/k	.	16g/k	.	16dd\k	.	16D\k	.	16dd/ 16d/k	.	16A/k	.	16F#/k	.
8.ddd\	.	8.GG/	.	8.g/	.	8.GG/	.	8.g/	.	8.dd\	.	8.D\	.	8.dd/ 8.d/	.	8.B-/	.	8.G/	.
16ddd\k	.	16AA/k	.	16a/k	.	16AA/k	.	16g/k	.	16dd\k	.	16D\k	.	16dd/ 16d/k	.	16A/k	.	16A/k	.
8.ddd\	.	8.BB-/	.	8.b-/	.	8.BB-/	.	8.g/	.	8.dd\	.	8.D\	.	8.dd/ 8.d/	.	8.B-/	.	8.B-/	.
16ddd\Jk	.	16GG/Jk	.	16g/Jk	.	16GG/Jk	.	16g/Jk	.	16dd\Jk	.	16D\Jk	.	16dd/ 16d/Jk	.	16G/Jk	.	16G/Jk	.
=73	=73	=73	=73	=73	=73	=73	=73	=73	=73	=73	=73	=73	=73	=73	=73	=73	=73	=73	=73
4ddd\	.	4D\	.	4dd\	.	4D\	.	4g/	.	4dd\	.	4D\	.	4dd/ 4d/	.	4d/	.	4d\	.
8.r	.	4r	.	8.r	.	4r	.	4r	.	4r	.	4r	.	8.r	.	8.r	.	4r	.
!	!	!	!	! I.	!	!	!	!	!	!	!	!	!	!	!	!	!	!	!
(16bbn\LK	p	.	.	(16gg\LK	p	.	.	.	.	.	.	.	.	(16bn/LK	p	(16g/LK	p	.	.
8aa\)	.	4r	.	8ff#\)	.	4r	.	4r	.	4r	.	4r	.	8a/)	.	8f#/)xx	.	4r	.
16r	.	.	.	16r	.	.	.	.	.	.	.	.	.	16r	.	16r	.	.	.
(16bb\Jk	.	.	.	(16gg\Jk	.	.	.	.	.	.	.	.	.	(16b/Jk	.	(16g/Jk	.	.	.
=74	=74	=74	=74	=74	=74	=74	=74	=74	=74	=74	=74	=74	=74	=74	=74	=74	=74	=74	=74
*	*	*	*	*	*	*	*	*^	*	*^	*	*	*	*	*	*	*	*	*
8ccc\L)	.	2.r	.	8aa\L)	.	2.r	.	2.r	2.r	.	2.r	2.r	.	2.r	.	8cc/L)	.	8a/L)	.	2.r	.
16r	.	.	.	16r	.	.	.	.	.	.	.	.	.	.	.	16r	.	16r	.	.	.
(16bb\k	.	.	.	(16gg\k	.	.	.	.	.	.	.	.	.	.	.	(16b/k	.	(16g/k	.	.	.
8aa\)	.	.	.	8ff#\)	.	.	.	.	.	.	.	.	.	.	.	8a/)	.	8f#/)	.	.	.
16r	.	.	.	16r	.	.	.	.	.	.	.	.	.	.	.	16r	.	16r	.	.	.
(16gg\k	.	.	.	(16ee\k	.	.	.	.	.	.	.	.	.	.	.	(16g/k	.	(16e/k	.	.	.
8ff#\)	.	.	.	8dd\)	.	.	.	.	.	.	.	.	.	.	.	8f#/)	.	8d/)	.	.	.
16r	.	.	.	16r	.	.	.	.	.	.	.	.	.	.	.	16r	.	16r	.	.	.
(16ee\Jk	.	.	.	(16cc\Jk	.	.	.	.	.	.	.	.	.	.	.	(16e/Jk	.	(16c/Jk	.	.	.
=75	=75	=75	=75	=75	=75	=75	=75	=75	=75	=75	=75	=75	=75	=75	=75	=75	=75	=75	=75	=75	=75
&(4dd\)	.	(2.GG/	p	&(2bn\)	.	2.r	.	2.r	2.r	.	2.r	2.r	.	2.r	.	&(4d/)	.	&(2Bn/)	.	4r	.
4gg\	.	.	.	.	.	.	.	.	.	.	.	.	.	.	.	4g/	.	.	.	4d\	p
4bb\&)	.	.	.	4dd\&)	.	.	.	.	.	.	.	.	.	.	.	4b\&)	.	4d/&)	.	4Bn/	.
=76	=76	=76	=76	=76	=76	=76	=76	=76	=76	=76	=76	=76	=76	=76	=76	=76	=76	=76	=76	=76	=76
(4ee\	.	2C/	.	(2ee\	.	2.r	.	2.r	2.r	.	2.r	2.r	.	2.r	.	(4e/	.	(2e/	.	(4G/	.
4aa\	.	.	.	.	.	.	.	.	.	.	.	.	.	.	.	4a/	.	.	.	4e\)	.
4ccc\)	.	4AA/)	.	4aa\)	.	.	.	.	.	.	.	.	.	.	.	4cc\)	.	4a/)	.	4e\	.
=77	=77	=77	=77	=77	=77	=77	=77	=77	=77	=77	=77	=77	=77	=77	=77	=77	=77	=77	=77	=77	=77
(4bb\	.	4D\	.	(4gg\	.	2.r	.	2.r	2.r	.	2.r	2.r	.	2.r	.	(4b\	.	(4g/	.	4d\	.
8aa\)	.	4r	.	8ff#\)	.	.	.	.	.	.	.	.	.	.	.	8a/)	.	8f#/)	.	8.r	.
16r	.	.	.	16r	.	.	.	.	.	.	.	.	.	.	.	16r	.	8r	.	.	.
(16b/LK	.	.	.	(16g/LK	.	.	.	.	.	.	.	.	.	.	.	(16B/LK	.	.	.	(16G/LK	.
8a/)	.	4r	.	8f#/)	.	.	.	.	.	.	.	.	.	.	.	8A/)	.	8.r	.	8F#/)	.
16r	.	.	.	16r	.	.	.	.	.	.	.	.	.	.	.	16r	.	.	.	16r	.
(16b/Jk	.	.	.	(16g/Jk	.	.	.	.	.	.	.	.	.	.	.	(16B/Jk	.	(16G/	.	(16G/Jk	.
=78	=78	=78	=78	=78	=78	=78	=78	=78	=78	=78	=78	=78	=78	=78	=78	=78	=78	=78	=78	=78	=78
8cc\L)	.	2.r	.	8a\L)	.	2.r	.	2.r	2.r	.	2.r	2.r	.	2.r	.	8c/L)	.	8A/L)	.	4A/)	.
16r	.	.	.	16r	.	.	.	.	.	.	.	.	.	.	.	16r	.	16r	.	.	.
(16dd\k	.	.	.	(16b\k	.	.	.	.	.	.	.	.	.	.	.	(16d/k	.	(16B/k	.	.	.
8ee\)	.	.	.	8cc\)	.	.	.	.	.	.	.	.	.	.	.	8e/)	.	8c/)	.	4r	.
16r	.	.	.	16r	.	.	.	.	.	.	.	.	.	.	.	16r	.	16r	.	.	.
(16ff#\k	.	.	.	(16dd\k	.	.	.	.	.	.	.	.	.	.	.	(16f#/k	.	(16d/k	.	.	.
8gg\)	.	.	.	8ee\)	.	.	.	.	.	.	.	.	.	.	.	8g/)	.	8e/)	.	4r	.
16r	.	.	.	16r	.	.	.	.	.	.	.	.	.	.	.	16r	.	16r	.	.	.
(16aa\Jk	.	.	.	(16ff#\Jk	.	.	.	.	.	.	.	.	.	.	.	(16a/Jk	.	(16f#/Jk	.	.	.
=79	=79	=79	=79	=79	=79	=79	=79	=79	=79	=79	=79	=79	=79	=79	=79	=79	=79	=79	=79	=79	=79
8bb\L)	.	4r	.	8gg\L)	.	2.r	.	2.r	2.r	.	2.r	2.r	.	2.r	.	8b\L)	.	8g/L)	.	2.r	.
16r	.	.	.	16r	.	.	.	.	.	.	.	.	.	.	.	16r	.	16r	.	.	.
(16ccc\k	.	.	.	(16aa\k	.	.	.	.	.	.	.	.	.	.	.	(16cc\k	.	(16a/k	.	.	.
8ddd\)	.	4r	.	8bb\)	.	.	.	.	.	.	.	.	.	.	.	8dd\)	.	8b/)	.	.	.
16r	.	.	.	16r	.	.	.	.	.	.	.	.	.	.	.	16r	.	16r	.	.	.
(16eee\k	.	.	.	(16ccc\k	.	.	.	.	.	.	.	.	.	.	.	(16ee\k	.	(16cc/k	.	.	.
8ccc\)	.	4C/	.	8aa\)	.	.	.	.	.	.	.	.	.	.	.	8cc\)	.	8e/)	.	.	.
16r	.	.	.	16r	.	.	.	.	.	.	.	.	.	.	.	16r	.	16r	.	.	.
16aa\Jk	.	.	.	16cc\Jk	.	.	.	.	.	.	.	.	.	.	.	16a\Jk	.	16c/Jk	.	.	.
=80	=80	=80	=80	=80	=80	=80	=80	=80	=80	=80	=80	=80	=80	=80	=80	=80	=80	=80	=80	=80	=80
(2gg\	.	2.D\	.	(4b\	.	2.r	.	2.r	2.r	.	2.r	2.r	.	2.r	.	(2g/	.	(2B/	.	(4B/	.
.	.	.	.	4dd\	.	.	.	.	.	.	.	.	.	.	.	.	.	.	.	4d\	.
! 8bbP/	!	!	!	!	!	!	!	!	!	!	!	!	!	!	!	! 8bP/	!	! 8dP/	!	!	!
4aap\)	.	.	.	4ff#\)	.	.	.	.	.	.	.	.	.	.	.	4ap/)	.	4cp/)	.	4f#\)	.
=81	=81	=81	=81	=81	=81	=81	=81	=81	=81	=81	=81	=81	=81	=81	=81	=81	=81	=81	=81	=81	=81
*>1st ending	*	*>1st ending	*	*>1st ending	*	*>1st ending	*	*	*	*	*	*	*	*>1st ending	*	*>1st ending	*	*>1st ending	*	*>1st ending	*
!	!	! Men. D. C.	!	!	!	!	!	!	!	!	!	!	!	! Men. D. C.	!	!	!	!	!	!	!
*	*	*	*	*	*	*	*	*v	*v	*	*	*	*	*	*	*	*	*	*	*	*
*	*	*	*	*	*	*	*	*>1st ending	*	*	*	*	*	*	*	*	*	*	*	*
*	*	*	*	*	*	*	*	*	*	*v	*v	*	*	*	*	*	*	*	*	*
*	*	*	*	*	*	*	*	*	*	*>1st ending	*	*	*	*	*	*	*	*	*
4gg\	.	4GG/	.	4gg\	.	4r	.	4r	.	4r	.	4r	.	4g/	.	4B/	.	4g\	.
8.r	.	8.G\	.	8.r	.	8.r	.	8.r	.	8.r	.	8.r	.	8.r	.	8.r	.	8.r	.
6..ryy	.	4ryy	.	4ryy	.	4ryy	.	4ryy	.	4ryy	.	4ryy	.	6..ryy	.	4ryy	.	4ryy	.
.	.	16ryy	.	16ryy	.	16ryy	.	16ryy	.	16ryy	.	16ryy	.	.	.	16ryy	.	16ryy	.
=82:|!	=82:|!	=82:|!	=82:|!	=82:|!	=82:|!	=82:|!	=82:|!	=82:|!	=82:|!	=82:|!	=82:|!	=82:|!	=82:|!	=82:|!	=82:|!	=82:|!	=82:|!	=82:|!	=82:|!
*>2nd ending	*	*>2nd ending	*	*>2nd ending	*	*>2nd ending	*	*>2nd ending	*	*>2nd ending	*	*>2nd ending	*	*>2nd ending	*	*>2nd ending	*	*>2nd ending	*
*>F	*	*>F	*	*>F	*	*>F	*	*>F	*	*>F	*	*>F	*	*>F	*	*>F	*	*>F	*
4gg\	.	4GG/	.	4gg\	.	4r	.	4r	.	4r	.	4r	.	4g/	.	4B/	.	4g\	.
4r	.	4G\	.	4r	.	4r	.	4r	.	4r	.	4r	.	4r	.	4r	.	4r	.
==|!	==|!	==|!	==|!	==|!	==|!	==|!	==|!	==|!	==|!	==|!	==|!	==|!	==|!	==|!	==|!	==|!	==|!	==|!	==|!
*-	*-	*-	*-	*-	*-	*-	*-	*-	*-	*-	*-	*-	*-	*-	*-	*-	*-	*-	*-
!!!RWG: Appoggiaturas of spine 'Flauto 1, 2' need manual editing in measures: 0, 1, 2, 4, 5, 6, 8, 9, 10, 13, 14, 24, 27, 30, 31, 33, 34, 36, 37, 43, 44, 47, 48, 53, 54, 63, 80
!!!RWG: Appoggiaturas of spine 'Violoncello e Contrabasso' need manual editing in measures: 16, 18, 28, 29, 30, 31, 31, 32, 40, 40, 41, 41
!!!RWG: Appoggiaturas of spine 'Oboe 1, 2' need manual editing in measures: 0, 1, 2, 4, 5, 6, 20, 21, 23, 24, 27, 27, 28, 29, 30, 30, 31, 31, 33, 34, 42, 43, 44, 64
!!!RWG: Appoggiaturas of spine 'Fagotto 1, 2' need manual editing in measures: 9, 10, 12, 13, 14, 21, 22, 23, 28, 29, 30, 31
!!!RWG: Appoggiaturas of spine 'Violino I' need manual editing in measures: 0, 1, 2, 4, 5, 6, 8, 9, 10, 12, 13, 14, 20, 21, 22, 23, 24, 27, 28, 29, 30, 31, 33, 34, 36, 37, 42, 43, 44, 46, 47, 48, 53, 54, 63, 80
!!!RWG: Appoggiaturas of spine 'Violino II' need manual editing in measures: 16, 17, 18, 19, 21, 23, 27, 28, 30, 31, 64, 80
!!!RWG: Appoggiaturas of spine 'Viola' need manual editing in measures: 16, 21, 23, 28, 31, 42, 43, 44
!!!RWG: Key is interpreted using the Humdrum key tool.
!!!OPT: Military
!!!AFT: stage2
!!!END: 1996/06/26
!!format changes:
!!content changes:
!!public access: complete
!!!KEY: 324657052
!!!EMD: Converted from MuseData to Humdrum Dec 16, 2000, by Andreas Kornstaedt using muse2kern.
